;FLAVOR:Marlin
;TIME:32022
;Filament used: 19.7746m
;Layer height: 0.3
;Generated with Cura_SteamEngine 3.1.0
M190 S60
M104 S200
M109 S200
M82 ; absolute extrusion mode
G21       ;metric values
G90       ;absolute positioning
M82       ;set extruder to absolute mode
M107      ;start with the fan off
G28       ;home
G1 Z15.0 F840
G92 E0    ;zero the extruded length
G1 F200 E3              ;extrude 3mm of feed stock
G92 E0                  ;zero the extruded length again
G1 F840
M117 Printing...
;LAYER_COUNT:22
;LAYER:0
M107
G0 F1470 X10.259 Y16.848 Z0.3
;TYPE:SKIRT
G1 X10.833 Y16.623 E0.03076
G1 X11.365 Y16.465 E0.05845
G1 X11.889 Y16.351 E0.0852
G1 X12.39 Y16.316 E0.11026
G1 X184.676 Y16.318 E8.70564
G1 X185.211 Y16.358 E8.7324
G1 X185.734 Y16.477 E8.75916
G1 X186.096 Y16.61 E8.77841
G1 X186.618 Y16.834 E8.80674
G1 X187.093 Y17.081 E8.83345
G1 X187.527 Y17.397 E8.86024
G1 X187.909 Y17.773 E8.88698
G1 X188.231 Y18.202 E8.91374
G1 X188.485 Y18.674 E8.94048
G1 X188.63 Y19.054 E8.96077
G1 X188.765 Y19.48 E8.98307
G1 X188.888 Y20.002 E9.00982
G1 X188.933 Y20.569 E9.0382
G1 X188.91 Y176.651 E16.82516
G1 X188.87 Y177.185 E16.85188
G1 X188.751 Y177.708 E16.87864
G1 X188.556 Y178.208 E16.90541
G1 X188.312 Y178.637 E16.93004
G1 X188.128 Y178.915 E16.94667
G1 X187.8 Y179.339 E16.97341
G1 X187.412 Y179.709 E17.00016
G1 X186.837 Y180.096 E17.03474
G1 X186.587 Y180.231 E17.04892
G1 X186.097 Y180.45 E17.07569
G1 X185.58 Y180.593 E17.10245
G1 X184.876 Y180.663 E17.13775
G1 X12.27 Y180.681 E25.7491
G1 X11.736 Y180.641 E25.77581
G1 X11.213 Y180.522 E25.80257
G1 X10.789 Y180.362 E25.82518
G1 X10.326 Y180.153 E25.85053
G1 X9.855 Y179.897 E25.87727
G1 X9.427 Y179.573 E25.90405
G1 X9.052 Y179.19 E25.93079
G1 X8.739 Y178.755 E25.95753
G1 X8.417 Y178.084 E25.99466
G1 X8.28 Y177.701 E26.01496
G1 X8.138 Y177.184 E26.0417
G1 X8.07 Y176.487 E26.07664
G1 X8.14 Y20.223 E33.87269
G1 X8.18 Y19.689 E33.8994
G1 X8.299 Y19.166 E33.92616
G1 X8.495 Y18.666 E33.95296
G1 X8.903 Y18.008 E33.99158
G1 X9.021 Y17.857 E34.00114
G1 X9.382 Y17.461 E34.02788
G1 X9.798 Y17.122 E34.05465
G1 X10.259 Y16.848 E34.0814
G0 X10.515 Y17.169
G1 X10.947 Y17.006 E34.10444
G1 X11.479 Y16.848 E34.13213
G1 X11.973 Y16.743 E34.15732
G1 X12.39 Y16.716 E34.17817
G1 X184.676 Y16.718 E42.77355
G1 X185.18 Y16.758 E42.79878
G1 X185.671 Y16.877 E42.82398
G1 X185.938 Y16.977 E42.83821
G1 X186.46 Y17.201 E42.86655
G1 X186.907 Y17.437 E42.89177
G1 X187.312 Y17.74 E42.917
G1 X187.664 Y18.103 E42.94223
G1 X187.954 Y18.517 E42.96744
G1 X188.248 Y19.175 E43.0034
G1 X188.383 Y19.601 E43.02569
G1 X188.498 Y20.094 E43.05095
G1 X188.533 Y20.568 E43.07466
G1 X188.51 Y176.65 E50.86163
G1 X188.47 Y177.154 E50.88685
G1 X188.351 Y177.646 E50.9121
G1 X188.156 Y178.112 E50.93731
G1 X187.978 Y178.416 E50.95488
G1 X187.794 Y178.694 E50.97151
G1 X187.483 Y179.092 E50.99671
G1 X187.113 Y179.437 E51.02195
G1 X186.646 Y179.744 E51.04983
G1 X186.396 Y179.879 E51.06401
G1 X185.934 Y180.083 E51.08921
G1 X185.445 Y180.212 E51.11444
G1 X184.876 Y180.263 E51.14294
G1 X12.27 Y180.281 E59.75429
G1 X11.766 Y180.241 E59.77951
G1 X11.275 Y180.122 E59.80471
G1 X10.953 Y179.998 E59.82193
G1 X10.49 Y179.789 E59.84727
G1 X10.048 Y179.545 E59.87246
G1 X9.648 Y179.234 E59.89774
G1 X9.303 Y178.865 E59.92294
G1 X9.021 Y178.446 E59.94814
G1 X8.794 Y177.95 E59.97535
G1 X8.657 Y177.567 E59.99565
G1 X8.525 Y177.079 E60.02087
G1 X8.47 Y176.488 E60.05048
G1 X8.54 Y20.224 E67.84652
G1 X8.58 Y19.72 E67.87175
G1 X8.699 Y19.228 E67.897
G1 X8.894 Y18.762 E67.9222
G1 X9.219 Y18.255 E67.95225
G1 X9.337 Y18.104 E67.96181
G1 X9.678 Y17.731 E67.98702
G1 X10.075 Y17.417 E68.01228
G1 X10.515 Y17.169 E68.03747
G1 F600 E65.03747
G0 F1470 X11.78 Y19.339
G0 X12.278 Y20.525
G0 X148.095 Y40.871
G0 X148.107 Y40.97
;TYPE:WALL-INNER
G1 F600 E68.03747
G1 F1470 X147.925 Y41.009 E68.04676
G1 X147.754 Y41.08 E68.056
G1 X147.596 Y41.175 E68.0652
G1 X147.453 Y41.3 E68.07467
G1 X147.335 Y41.447 E68.08408
G1 X147.245 Y41.609 E68.09332
G1 X147.182 Y41.785 E68.10265
G1 X147.151 Y41.97 E68.11201
G1 X147.151 Y42.156 E68.12129
G1 X147.182 Y42.341 E68.13064
G1 X147.245 Y42.517 E68.13997
G1 X147.335 Y42.679 E68.14922
G1 X147.453 Y42.826 E68.15862
G1 X147.596 Y42.951 E68.1681
G1 X147.754 Y43.046 E68.17729
G1 X147.925 Y43.117 E68.18653
G1 X148.107 Y43.156 E68.19582
G1 X148.294 Y43.165 E68.20516
G1 X148.484 Y43.14 E68.21472
G1 X148.661 Y43.085 E68.22397
G1 X148.827 Y43.002 E68.23323
G1 X148.979 Y42.889 E68.24267
G1 X149.105 Y42.756 E68.25182
G1 X149.211 Y42.603 E68.2611
G1 X149.289 Y42.428 E68.27066
G1 X149.336 Y42.248 E68.27994
G1 X149.351 Y42.063 E68.2892
G1 X149.336 Y41.878 E68.29846
G1 X149.289 Y41.696 E68.30784
G1 X149.211 Y41.523 E68.31731
G1 X149.105 Y41.37 E68.32659
G1 X148.971 Y41.229 E68.3363
G1 X148.793 Y41.107 E68.34706
G1 X148.661 Y41.041 E68.35443
G1 X148.484 Y40.986 E68.36367
G1 X148.294 Y40.961 E68.37323
G1 X148.107 Y40.97 E68.38257
G0 X148.095 Y40.871
G0 X151.095 Y40.871
G0 X151.107 Y40.97
G1 X150.925 Y41.009 E68.39186
G1 X150.754 Y41.08 E68.4011
G1 X150.596 Y41.175 E68.4103
G1 X150.453 Y41.3 E68.41977
G1 X150.335 Y41.447 E68.42918
G1 X150.245 Y41.609 E68.43842
G1 X150.182 Y41.785 E68.44775
G1 X150.151 Y41.97 E68.45711
G1 X150.151 Y42.156 E68.46639
G1 X150.182 Y42.341 E68.47574
G1 X150.245 Y42.517 E68.48507
G1 X150.335 Y42.679 E68.49432
G1 X150.453 Y42.826 E68.50372
G1 X150.596 Y42.951 E68.5132
G1 X150.754 Y43.046 E68.52239
G1 X150.925 Y43.117 E68.53163
G1 X151.107 Y43.156 E68.54092
G1 X151.296 Y43.165 E68.55036
G1 X151.484 Y43.14 E68.55982
G1 X151.661 Y43.085 E68.56907
G1 X151.827 Y43.002 E68.57833
G1 X151.979 Y42.889 E68.58778
G1 X152.105 Y42.756 E68.59692
G1 X152.211 Y42.603 E68.6062
G1 X152.289 Y42.428 E68.61576
G1 X152.336 Y42.248 E68.62504
G1 X152.351 Y42.063 E68.6343
G1 X152.336 Y41.878 E68.64356
G1 X152.289 Y41.696 E68.65294
G1 X152.211 Y41.523 E68.66241
G1 X152.105 Y41.37 E68.67169
G1 X151.98 Y41.239 E68.68073
G1 X151.829 Y41.124 E68.6902
G1 X151.66 Y41.04 E68.69961
G1 X151.484 Y40.986 E68.7088
G1 X151.296 Y40.961 E68.71826
G1 X151.107 Y40.97 E68.7277
G0 X151.095 Y40.871
G0 X150.425 Y41.273
G0 X150.199 Y41.678
G0 X149.505 Y45.381
G0 X149.519 Y45.479
G1 X149.254 Y45.54 E68.74127
G1 X149.006 Y45.646 E68.75472
G1 X148.777 Y45.791 E68.76824
G1 X148.572 Y45.976 E68.78202
G1 X148.408 Y46.191 E68.79551
G1 X148.279 Y46.427 E68.80893
G1 X148.194 Y46.687 E68.82258
G1 X148.153 Y46.953 E68.836
G1 X148.157 Y47.228 E68.84972
G1 X148.208 Y47.492 E68.86314
G1 X148.301 Y47.748 E68.87673
G1 X148.44 Y47.982 E68.89031
G1 X148.611 Y48.189 E68.9037
G1 X148.819 Y48.366 E68.91733
G1 X149.053 Y48.504 E68.93088
G1 X149.305 Y48.601 E68.94435
G1 X149.564 Y48.654 E68.95754
G1 X149.818 Y48.663 E68.97022
G1 X150.086 Y48.63 E68.98369
G1 X150.346 Y48.55 E68.99726
G1 X150.589 Y48.428 E69.01083
G1 X150.809 Y48.265 E69.02449
G1 X150.995 Y48.069 E69.03797
G1 X151.147 Y47.845 E69.05148
G1 X151.259 Y47.597 E69.06505
G1 X151.329 Y47.334 E69.07863
G1 X151.351 Y47.063 E69.0922
G1 X151.329 Y46.792 E69.10576
G1 X151.259 Y46.529 E69.11934
G1 X151.147 Y46.281 E69.13291
G1 X150.995 Y46.057 E69.14642
G1 X150.809 Y45.861 E69.1599
G1 X150.589 Y45.698 E69.17356
G1 X150.346 Y45.576 E69.18713
G1 X150.087 Y45.497 E69.20063
G1 X149.813 Y45.462 E69.21442
G1 X149.519 Y45.479 E69.22911
G0 X149.505 Y45.381
G0 X180.024 Y22.316
G0 X180.716 Y22.041
G0 X180.728 Y22.14
G1 X180.376 Y22.216 E69.24707
G1 X180.042 Y22.351 E69.26505
G1 X179.735 Y22.54 E69.28303
G1 X179.463 Y22.778 E69.30106
G1 X179.237 Y23.059 E69.31906
G1 X179.061 Y23.373 E69.33701
G1 X178.94 Y23.714 E69.35507
G1 X178.88 Y24.07 E69.37308
G1 X178.88 Y24.43 E69.39104
G1 X178.94 Y24.786 E69.40905
G1 X179.061 Y25.127 E69.4271
G1 X179.237 Y25.441 E69.44506
G1 X179.463 Y25.722 E69.46305
G1 X179.735 Y25.96 E69.48108
G1 X180.042 Y26.149 E69.49907
G1 X180.376 Y26.284 E69.51704
G1 X180.728 Y26.36 E69.53501
G1 X181.09 Y26.376 E69.55308
G1 X181.448 Y26.329 E69.5711
G1 X181.792 Y26.224 E69.58904
G1 X182.114 Y26.062 E69.60703
G1 X182.405 Y25.847 E69.62508
G1 X182.654 Y25.586 E69.64307
G1 X182.857 Y25.288 E69.66106
G1 X183.005 Y24.959 E69.67906
G1 X183.096 Y24.61 E69.69705
G1 X183.126 Y24.25 E69.71508
G1 X183.096 Y23.89 E69.7331
G1 X183.005 Y23.541 E69.75109
G1 X182.857 Y23.212 E69.76909
G1 X182.654 Y22.914 E69.78708
G1 X182.405 Y22.653 E69.80508
G1 X182.114 Y22.438 E69.82313
G1 X181.792 Y22.276 E69.84111
G1 X181.448 Y22.171 E69.85906
G1 X181.09 Y22.124 E69.87707
G1 X180.728 Y22.14 E69.89515
G0 X180.716 Y22.041
G0 X180.024 Y22.316
G0 X179.435 Y22.751
G0 X179.025 Y23.357
G0 X147.554 Y145.954
G0 X147.624 Y146.024
G1 X147.624 Y149.476 E70.06737
G1 X148.376 Y149.476 E70.10489
G1 X148.457 Y149.476 E70.10893
G1 X148.762 Y149.476 E70.12414
G1 X149.109 Y149.476 E70.14146
G1 X148.762 Y149.618
G1 X148.457 Y149.813 E70.15168
G1 X148.398 Y149.867 E70.15537
G1 X148.191 Y150.056 E70.16935
G1 X147.969 Y150.34 E70.18734
G1 X147.801 Y150.653 E70.20506
G1 X147.69 Y150.965 E70.22158
G1 X147.63 Y151.32 E70.23954
G1 X147.63 Y151.68 E70.2575
G1 X147.69 Y152.036 E70.27552
G1 X147.812 Y152.377 E70.29358
G1 X147.988 Y152.692 E70.31159
G1 X148.213 Y152.972 E70.32951
G1 X148.485 Y153.21 E70.34754
G1 X148.792 Y153.399 E70.36552
G1 X149.126 Y153.534 E70.3835
G1 X149.478 Y153.61 E70.40146
G1 X149.84 Y153.626 E70.41954
G1 X150.198 Y153.579 E70.43755
G1 X150.542 Y153.474 E70.4555
G1 X150.864 Y153.312 E70.47348
G1 X151.155 Y153.097 E70.49153
G1 X151.404 Y152.836 E70.50953
G1 X151.607 Y152.538 E70.52752
G1 X151.755 Y152.209 E70.54552
G1 X151.846 Y151.86 E70.56351
G1 X151.876 Y151.5 E70.58153
G1 X151.846 Y151.14 E70.59956
G1 X151.755 Y150.791 E70.61755
G1 X151.607 Y150.462 E70.63555
G1 X151.404 Y150.164 E70.65354
G1 X151.155 Y149.903 E70.67153
G1 X151.093 Y149.857 E70.67539
G1 X150.864 Y149.688 E70.68958
G1 X150.542 Y149.526 E70.70757
G1 X150.378 Y149.476 E70.71612
G1 X150.542 Y149.476
G1 X150.864 Y149.476
G1 X151.149 Y149.476 E70.72717
G1 X151.874 Y149.476 E70.76334
G1 X151.874 Y146.024 E70.93556
G1 X147.624 Y146.024 E71.14759
G0 X147.554 Y145.954
G0 X151.902 Y145.996
G0 X180.716 Y170.541
G0 X180.728 Y170.64
G1 X180.376 Y170.716 E71.16556
G1 X180.042 Y170.851 E71.18353
G1 X179.735 Y171.04 E71.20152
G1 X179.463 Y171.278 E71.21955
G1 X179.237 Y171.559 E71.23754
G1 X179.061 Y171.873 E71.2555
G1 X178.94 Y172.214 E71.27355
G1 X178.88 Y172.57 E71.29156
G1 X178.88 Y172.93 E71.30952
G1 X178.94 Y173.286 E71.32753
G1 X179.061 Y173.627 E71.34559
G1 X179.237 Y173.941 E71.36354
G1 X179.463 Y174.222 E71.38154
G1 X179.735 Y174.46 E71.39957
G1 X180.042 Y174.649 E71.41755
G1 X180.376 Y174.784 E71.43553
G1 X180.728 Y174.86 E71.45349
G1 X181.09 Y174.876 E71.47157
G1 X181.448 Y174.829 E71.48958
G1 X181.792 Y174.724 E71.50753
G1 X182.114 Y174.562 E71.52551
G1 X182.405 Y174.347 E71.54356
G1 X182.654 Y174.086 E71.56156
G1 X182.857 Y173.788 E71.57955
G1 X183.005 Y173.459 E71.59755
G1 X183.096 Y173.11 E71.61554
G1 X183.126 Y172.75 E71.63356
G1 X183.096 Y172.39 E71.65159
G1 X183.005 Y172.041 E71.66958
G1 X182.857 Y171.712 E71.68758
G1 X182.654 Y171.414 E71.70557
G1 X182.405 Y171.153 E71.72356
G1 X182.114 Y170.938 E71.74161
G1 X181.792 Y170.776 E71.7596
G1 X181.448 Y170.671 E71.77754
G1 X181.09 Y170.624 E71.79555
G1 X180.728 Y170.64 E71.81363
G0 X180.716 Y170.541
G0 X12.46 Y176.388
G0 X12.46 Y176.487
G1 X12.26 Y176.487 E71.82361
G1 X12.26 Y176.287 E71.83007
G1 X12.264 Y20.511 E79.60177
G1 X184.521 Y20.509 E88.1957
G1 X184.703 Y20.509 E88.20478
G1 X184.737 Y20.518 E88.20654
G1 X184.737 Y20.7 E88.21562
G1 X184.736 Y176.484 E95.98771
G1 X184.702 Y176.49 E95.98944
G1 X12.46 Y176.487 E104.58262
G0 X12.46 Y176.388
G0 X148.024 Y145.924
G0 X148.024 Y146.424
;TYPE:WALL-OUTER
G1 X148.024 Y149.076 E104.71493
G1 X151.474 Y149.076 E104.88705
G1 X151.474 Y146.424 E105.01936
G1 X148.024 Y146.424 E105.19148
G0 X148.024 Y146.624
G0 X147.524 Y146.624
G0 X147.596 Y149.504
G0 X149.011 Y149.494
G0 X149.55 Y149.786
G1 X149.218 Y149.861 E105.20847
G1 X148.948 Y149.974 E105.22307
G1 X148.701 Y150.132 E105.2377
G1 X148.485 Y150.329 E105.25228
G1 X148.305 Y150.559 E105.26685
G1 X148.168 Y150.815 E105.28134
G1 X148.079 Y151.066 E105.29462
G1 X148.03 Y151.354 E105.3092
G1 X148.03 Y151.646 E105.32377
G1 X148.079 Y151.935 E105.33839
G1 X148.177 Y152.211 E105.353
G1 X148.321 Y152.467 E105.36766
G1 X148.503 Y152.694 E105.38217
G1 X148.723 Y152.887 E105.39677
G1 X148.973 Y153.041 E105.41142
G1 X149.244 Y153.15 E105.426
G1 X149.53 Y153.212 E105.4406
G1 X149.823 Y153.225 E105.45523
G1 X150.113 Y153.187 E105.46982
G1 X150.393 Y153.101 E105.48443
G1 X150.654 Y152.97 E105.499
G1 X150.89 Y152.796 E105.51363
G1 X151.092 Y152.584 E105.52824
G1 X151.256 Y152.342 E105.54282
G1 X151.376 Y152.075 E105.55743
G1 X151.45 Y151.792 E105.57202
G1 X151.475 Y151.5 E105.58664
G1 X151.45 Y151.208 E105.60127
G1 X151.376 Y150.925 E105.61586
G1 X151.256 Y150.658 E105.63046
G1 X151.092 Y150.416 E105.64505
G1 X150.89 Y150.204 E105.65966
G1 X150.654 Y150.03 E105.67429
G1 X150.393 Y149.899 E105.68885
G1 X150.113 Y149.813 E105.70347
G1 X149.823 Y149.776 E105.71805
G1 X149.55 Y149.786 E105.73168
G0 X149.355 Y149.83
G0 X149.011 Y149.494
G0 X147.596 Y149.504
G0 X147.596 Y145.996
G0 X151.902 Y145.996
G0 X180.758 Y170.538
G0 X180.78 Y171.038
G1 X180.494 Y171.1 E105.74628
G1 X180.223 Y171.209 E105.76086
G1 X179.973 Y171.363 E105.7755
G1 X179.753 Y171.556 E105.79011
G1 X179.57 Y171.784 E105.80469
G1 X179.427 Y172.039 E105.81928
G1 X179.329 Y172.315 E105.83389
G1 X179.28 Y172.604 E105.84851
G1 X179.28 Y172.896 E105.86308
G1 X179.329 Y173.185 E105.87771
G1 X179.427 Y173.461 E105.89232
G1 X179.57 Y173.716 E105.9069
G1 X179.753 Y173.944 E105.92149
G1 X179.973 Y174.137 E105.93609
G1 X180.223 Y174.291 E105.95074
G1 X180.494 Y174.4 E105.96531
G1 X180.78 Y174.462 E105.97991
G1 X181.073 Y174.475 E105.99454
G1 X181.363 Y174.437 E106.00914
G1 X181.643 Y174.351 E106.02375
G1 X181.904 Y174.22 E106.03832
G1 X182.14 Y174.046 E106.05295
G1 X182.342 Y173.834 E106.06756
G1 X182.506 Y173.592 E106.08214
G1 X182.626 Y173.325 E106.09674
G1 X182.7 Y173.042 E106.11134
G1 X182.725 Y172.75 E106.12596
G1 X182.7 Y172.458 E106.14058
G1 X182.626 Y172.175 E106.15517
G1 X182.506 Y171.908 E106.16978
G1 X182.342 Y171.666 E106.18436
G1 X182.14 Y171.454 E106.19897
G1 X181.904 Y171.28 E106.2136
G1 X181.643 Y171.149 E106.22817
G1 X181.363 Y171.063 E106.24278
G1 X181.073 Y171.025 E106.25738
G1 X180.78 Y171.038 E106.27201
G0 X180.585 Y171.08
G0 X180.481 Y170.591
G0 X151.296 Y46.516
G0 X151.026 Y46.032
G0 X150.609 Y45.664
G0 X150.194 Y45.498
G0 X149.548 Y45.377
G0 X149.576 Y45.876
G1 X149.378 Y45.922 E106.28215
G1 X149.192 Y46.001 E106.29223
G1 X149.02 Y46.11 E106.30239
G1 X148.868 Y46.248 E106.31263
G1 X148.745 Y46.409 E106.32274
G1 X148.648 Y46.587 E106.33285
G1 X148.584 Y46.781 E106.34305
G1 X148.553 Y46.981 E106.35314
G1 X148.556 Y47.186 E106.36337
G1 X148.595 Y47.385 E106.37349
G1 X148.664 Y47.576 E106.38362
G1 X148.768 Y47.751 E106.39378
G1 X148.897 Y47.907 E106.40388
G1 X149.052 Y48.039 E106.41403
G1 X149.228 Y48.143 E106.42423
G1 X149.417 Y48.216 E106.43434
G1 X149.611 Y48.255 E106.44421
G1 X149.801 Y48.262 E106.4537
G1 X150.002 Y48.237 E106.4638
G1 X150.197 Y48.177 E106.47398
G1 X150.379 Y48.086 E106.48413
G1 X150.543 Y47.964 E106.49433
G1 X150.683 Y47.817 E106.50446
G1 X150.797 Y47.649 E106.51459
G1 X150.881 Y47.463 E106.52477
G1 X150.933 Y47.266 E106.53494
G1 X150.95 Y47.063 E106.5451
G1 X150.933 Y46.86 E106.55526
G1 X150.881 Y46.663 E106.56543
G1 X150.797 Y46.477 E106.57561
G1 X150.683 Y46.309 E106.58574
G1 X150.543 Y46.162 E106.59587
G1 X150.379 Y46.04 E106.60606
G1 X150.197 Y45.949 E106.61621
G1 X150.002 Y45.889 E106.62639
G1 X149.799 Y45.863 E106.6366
G1 X149.576 Y45.876 E106.64775
G0 X149.381 Y45.921
G0 X149.185 Y45.461
G0 X149.375 Y41.872
G0 X149.136 Y41.345
G0 X148.764 Y41.07
G0 X148.137 Y40.868
G0 X148.16 Y41.368
G1 X148.044 Y41.393 E106.65367
G1 X147.934 Y41.438 E106.6596
G1 X147.833 Y41.499 E106.66548
G1 X147.743 Y41.578 E106.67146
G1 X147.668 Y41.671 E106.67742
G1 X147.611 Y41.774 E106.68329
G1 X147.571 Y41.886 E106.68923
G1 X147.551 Y42.004 E106.6952
G1 X147.551 Y42.122 E106.70108
