;FLAVOR:Marlin
;TIME:6234
;Filament used: 3.36184m
;Layer height: 0.175
;Generated with Cura_SteamEngine 3.1.0
M190 S60
M104 S200
M109 S200
M82 ; absolute extrusion mode
G21       ;metric values
G90       ;absolute positioning
M82       ;set extruder to absolute mode
M107      ;start with the fan off
G28       ;home
G1 Z15.0 F840
G92 E0    ;zero the extruded length
G1 F200 E3              ;extrude 3mm of feed stock
G92 E0                  ;zero the extruded length again
G1 F840
M117 Printing...
;LAYER_COUNT:297
;LAYER:0
M107
G0 F1470 X91.183 Y83.621 Z0.3
;TYPE:SKIRT
G1 X91.9 Y82.892 E0.05101
G1 X92.149 Y82.667 E0.06776
G1 X92.897 Y82.06 E0.11582
G1 X93.168 Y81.863 E0.13253
G1 X94.034 Y81.308 E0.18385
G1 X94.39 Y81.113 E0.2041
G1 X95.717 Y80.497 E0.27709
G1 X96.293 Y80.298 E0.30749
G1 X98.291 Y79.828 E0.40989
G1 X98.908 Y79.749 E0.44093
G1 X100.444 Y79.713 E0.51758
G1 X100.854 Y79.731 E0.53805
G1 X101.845 Y79.844 E0.58781
G1 X102.255 Y79.92 E0.60862
G1 X103.739 Y80.303 E0.68508
G1 X104.257 Y80.489 E0.71254
G1 X105.681 Y81.153 E0.79093
G1 X106.102 Y81.393 E0.8151
G1 X107.32 Y82.223 E0.88864
G1 X107.659 Y82.492 E0.91023
G1 X108.387 Y83.16 E0.95952
G1 X108.625 Y83.404 E0.97653
G1 X109.299 Y84.181 E1.02784
G1 X109.565 Y84.538 E1.05005
G1 X110.389 Y85.835 E1.12672
G1 X110.617 Y86.268 E1.15113
G1 X111.212 Y87.665 E1.22689
G1 X111.38 Y88.186 E1.2542
G1 X111.724 Y89.723 E1.33278
G1 X111.784 Y90.106 E1.35212
G1 X114.166 Y116.27 E2.66284
G1 X114.17 Y116.759 E2.68724
G1 X114.095 Y117.243 E2.71167
G1 X113.988 Y117.594 E2.72998
G1 X113.863 Y117.928 E2.74777
G1 X113.654 Y118.37 E2.77217
G1 X113.377 Y118.774 E2.7966
G1 X112.942 Y119.207 E2.82722
G1 X112.488 Y119.575 E2.85638
G1 X112.084 Y119.851 E2.88079
G1 X111.64 Y120.057 E2.90521
G1 X111.169 Y120.189 E2.92961
G1 X110.75 Y120.24 E2.95067
G1 X109.441 Y120.306 E3.01606
G1 X109.288 Y120.31 E3.0237
G1 X89.767 Y120.3 E3.9976
G1 X89.31 Y120.265 E4.02047
G1 X88.916 Y120.204 E4.04036
G1 X88.44 Y120.09 E4.06478
G1 X87.989 Y119.9 E4.0892
G1 X87.439 Y119.531 E4.12224
G1 X87.014 Y119.172 E4.15
G1 X86.667 Y118.826 E4.17444
G1 X86.381 Y118.429 E4.19885
G1 X86.149 Y117.955 E4.22518
G1 X86.02 Y117.619 E4.24314
G1 X85.883 Y117.15 E4.26752
G1 X85.823 Y116.664 E4.29195
G1 X85.833 Y116.274 E4.31141
G1 X88.159 Y90.552 E5.59992
G1 X88.207 Y90.227 E5.61631
G1 X88.609 Y88.24 E5.71745
G1 X88.792 Y87.653 E5.74813
G1 X89.4 Y86.235 E5.8251
G1 X89.592 Y85.862 E5.84603
G1 X90.128 Y84.978 E5.89761
G1 X90.326 Y84.69 E5.91504
G1 X90.955 Y83.882 E5.96613
G1 X91.183 Y83.621 E5.98342
G0 X91.468 Y83.902
G1 X92.185 Y83.173 E6.03443
G1 X92.401 Y82.977 E6.04898
G1 X93.149 Y82.37 E6.09704
G1 X93.384 Y82.2 E6.11151
G1 X94.25 Y81.645 E6.16283
G1 X94.558 Y81.476 E6.18036
G1 X95.885 Y80.86 E6.25335
G1 X96.385 Y80.687 E6.27974
G1 X98.383 Y80.217 E6.38214
G1 X98.917 Y80.149 E6.409
G1 X100.453 Y80.113 E6.48565
G1 X100.809 Y80.129 E6.50343
G1 X101.8 Y80.242 E6.55319
G1 X102.155 Y80.307 E6.5712
G1 X103.639 Y80.69 E6.64766
G1 X104.088 Y80.852 E6.67148
G1 X105.512 Y81.516 E6.74986
G1 X105.877 Y81.723 E6.7708
G1 X107.095 Y82.553 E6.84433
G1 X107.389 Y82.786 E6.86305
G1 X108.117 Y83.454 E6.91234
G1 X108.323 Y83.666 E6.92709
G1 X108.997 Y84.443 E6.97841
G1 X109.228 Y84.753 E6.99769
G1 X110.052 Y86.05 E7.07436
G1 X110.249 Y86.425 E7.09549
G1 X110.844 Y87.822 E7.17124
G1 X110.989 Y88.273 E7.19488
G1 X111.333 Y89.81 E7.27346
G1 X111.385 Y90.142 E7.29022
G1 X113.767 Y116.306 E8.60095
G1 X113.769 Y116.762 E8.6237
G1 X113.691 Y117.211 E8.64643
G1 X113.613 Y117.453 E8.65912
G1 X113.488 Y117.787 E8.67691
G1 X113.292 Y118.198 E8.69963
G1 X113.026 Y118.569 E8.7224
G1 X112.69 Y118.896 E8.74579
G1 X112.236 Y119.264 E8.77495
G1 X111.858 Y119.519 E8.7977
G1 X111.442 Y119.704 E8.82041
G1 X111 Y119.813 E8.84313
G1 X110.73 Y119.841 E8.85667
G1 X109.421 Y119.907 E8.92206
G1 X109.289 Y119.91 E8.92864
G1 X89.768 Y119.9 E9.90255
G1 X89.371 Y119.869 E9.92242
G1 X88.977 Y119.808 E9.94231
G1 X88.535 Y119.699 E9.96502
G1 X88.118 Y119.515 E9.98776
G1 X87.697 Y119.225 E10.01327
G1 X87.272 Y118.866 E10.04102
G1 X86.951 Y118.543 E10.06374
G1 X86.692 Y118.168 E10.08648
G1 X86.523 Y117.812 E10.10614
G1 X86.394 Y117.476 E10.12409
G1 X86.268 Y117.038 E10.14683
G1 X86.221 Y116.585 E10.16955
G1 X86.232 Y116.31 E10.18328
G1 X88.558 Y90.588 E11.4718
G1 X88.599 Y90.306 E11.48601
G1 X89.001 Y88.319 E11.58715
G1 X89.159 Y87.81 E11.61374
G1 X89.767 Y86.392 E11.69072
G1 X89.934 Y86.069 E11.70886
G1 X90.47 Y85.185 E11.76043
G1 X90.641 Y84.936 E11.7755
G1 X91.27 Y84.128 E11.82659
G1 X91.468 Y83.902 E11.84158
G0 X91.754 Y84.182
G1 X92.471 Y83.453 E11.89259
G1 X92.653 Y83.288 E11.90485
G1 X93.401 Y82.681 E11.95291
G1 X93.6 Y82.537 E11.96516
G1 X94.466 Y81.982 E12.01648
G1 X94.727 Y81.839 E12.03133
G1 X96.054 Y81.223 E12.10432
G1 X96.476 Y81.076 E12.12661
G1 X98.474 Y80.606 E12.22901
G1 X98.926 Y80.549 E12.25174
G1 X100.462 Y80.513 E12.32839
G1 X100.763 Y80.526 E12.34343
G1 X101.754 Y80.639 E12.39319
G1 X102.055 Y80.695 E12.40846
G1 X103.539 Y81.078 E12.48492
G1 X103.919 Y81.214 E12.50506
G1 X105.343 Y81.878 E12.58345
G1 X105.652 Y82.054 E12.60119
G1 X106.87 Y82.884 E12.67472
G1 X107.118 Y83.081 E12.69052
G1 X107.846 Y83.749 E12.73982
G1 X108.021 Y83.928 E12.75231
G1 X108.695 Y84.705 E12.80362
G1 X108.89 Y84.967 E12.81992
G1 X109.714 Y86.264 E12.89658
G1 X109.881 Y86.582 E12.9145
G1 X110.476 Y87.979 E12.99025
G1 X110.599 Y88.36 E13.01023
G1 X110.943 Y89.897 E13.08881
G1 X110.987 Y90.179 E13.10305
G1 X113.369 Y116.343 E14.41377
G1 X113.367 Y116.762 E14.43468
G1 X113.238 Y117.313 E14.46291
G1 X113.113 Y117.647 E14.4807
G1 X112.93 Y118.024 E14.50161
G1 X112.678 Y118.359 E14.52252
G1 X112.438 Y118.585 E14.53897
G1 X111.984 Y118.953 E14.56813
G1 X111.635 Y119.185 E14.58903
G1 X111.248 Y119.346 E14.60995
G1 X110.71 Y119.441 E14.6372
G1 X109.401 Y119.507 E14.70259
G1 X109.289 Y119.51 E14.70818
G1 X89.768 Y119.5 E15.68209
G1 X89.432 Y119.474 E15.6989
G1 X89.038 Y119.413 E15.71879
G1 X88.632 Y119.31 E15.73969
G1 X88.253 Y119.131 E15.7606
G1 X87.955 Y118.92 E15.77882
G1 X87.53 Y118.561 E15.80657
G1 X87.237 Y118.261 E15.82749
G1 X87.007 Y117.911 E15.84839
G1 X86.896 Y117.669 E15.86167
G1 X86.767 Y117.333 E15.87963
G1 X86.655 Y116.929 E15.90054
G1 X86.63 Y116.346 E15.92966
G1 X88.956 Y90.624 E17.21817
G1 X88.991 Y90.386 E17.23017
G1 X89.393 Y88.399 E17.33131
G1 X89.527 Y87.968 E17.35383
G1 X90.135 Y86.55 E17.4308
G1 X90.276 Y86.276 E17.44617
G1 X90.812 Y85.392 E17.49775
G1 X90.957 Y85.182 E17.51048
G1 X91.586 Y84.374 E17.56157
G1 X91.754 Y84.182 E17.5743
G1 F600 E14.5743
G0 F1470 X93.092 Y84.97
G0 X94.063 Y85.808
G0 X108.196 Y91.65
G0 X108.295 Y91.644
;TYPE:WALL-INNER
G1 F600 E17.5743
G1 F1470 X108.445 Y93.339 E17.65919
G1 X110.594 Y116.356 E18.81251
G1 X110.591 Y116.431 E18.81625
G1 X110.535 Y116.576 E18.82401
G1 X110.476 Y116.646 E18.82857
G1 X110.416 Y116.686 E18.83217
G1 X110.258 Y116.71 E18.84015
G1 X89.746 Y116.709 E19.86349
G1 X89.578 Y116.684 E19.87197
G1 X89.525 Y116.645 E19.87525
G1 X89.462 Y116.572 E19.88006
G1 X89.408 Y116.435 E19.88741
G1 X89.405 Y116.347 E19.8918
G1 X91.707 Y91.621 E21.13072
G1 X91.736 Y90.872 E21.16812
G1 X91.871 Y89.933 E21.21544
G1 X92.111 Y89.016 E21.26273
G1 X92.45 Y88.14 E21.3096
G1 X92.896 Y87.294 E21.35731
G1 X93.426 Y86.518 E21.40419
G1 X94.049 Y85.795 E21.45181
G1 X94.744 Y85.159 E21.49881
G1 X95.515 Y84.598 E21.54638
G1 X96.337 Y84.133 E21.5935
G1 X97.205 Y83.766 E21.64051
G1 X98.125 Y83.495 E21.68836
G1 X99.053 Y83.335 E21.73534
G1 X100 Y83.28 E21.78267
G1 X100.947 Y83.335 E21.82999
G1 X101.875 Y83.495 E21.87697
G1 X102.795 Y83.766 E21.92482
G1 X103.663 Y84.133 E21.97184
G1 X104.485 Y84.598 E22.01896
G1 X105.256 Y85.159 E22.06653
G1 X105.951 Y85.795 E22.11353
G1 X106.574 Y86.518 E22.16114
G1 X107.104 Y87.294 E22.20802
G1 X107.55 Y88.14 E22.25574
G1 X107.889 Y89.016 E22.3026
G1 X108.129 Y89.934 E22.34994
G1 X108.263 Y90.872 E22.39721
G1 X108.295 Y91.644 E22.43576
G0 X108.694 Y91.618
;TYPE:WALL-OUTER
G1 X108.843 Y93.303 E22.52015
G1 X110.995 Y116.356 E23.67527
G1 X110.988 Y116.514 E23.68316
G1 X110.885 Y116.783 E23.69753
G1 X110.75 Y116.941 E23.7079
G1 X110.628 Y117.029 E23.71541
G1 X110.532 Y117.072 E23.72065
G1 X110.287 Y117.11 E23.73302
G1 X89.712 Y117.109 E24.75951
G1 X89.467 Y117.072 E24.77188
G1 X89.375 Y117.031 E24.7769
G1 X89.251 Y116.941 E24.78454
G1 X89.115 Y116.781 E24.79502
G1 X89.011 Y116.516 E24.80922
G1 X89.004 Y116.347 E24.81766
G1 X91.308 Y91.595 E26.05788
G1 X91.337 Y90.838 E26.09568
G1 X91.478 Y89.855 E26.14522
G1 X91.73 Y88.894 E26.19479
G1 X92.086 Y87.974 E26.244
G1 X92.551 Y87.091 E26.29379
G1 X93.111 Y86.27 E26.34337
G1 X93.762 Y85.516 E26.39307
G1 X94.487 Y84.852 E26.44212
G1 X95.302 Y84.259 E26.4924
G1 X96.159 Y83.774 E26.54153
G1 X97.075 Y83.387 E26.59114
G1 X98.03 Y83.106 E26.64081
G1 X99.006 Y82.937 E26.69022
G1 X100 Y82.88 E26.7399
G1 X100.994 Y82.937 E26.78957
G1 X101.97 Y83.106 E26.83898
G1 X102.925 Y83.387 E26.88865
G1 X103.841 Y83.774 E26.93826
G1 X104.698 Y84.259 E26.98739
G1 X105.513 Y84.852 E27.03767
G1 X106.238 Y85.516 E27.08672
G1 X106.889 Y86.27 E27.13642
G1 X107.449 Y87.091 E27.186
G1 X107.914 Y87.974 E27.23579
G1 X108.27 Y88.894 E27.285
G1 X108.522 Y89.855 E27.33457
G1 X108.662 Y90.839 E27.38416
G1 X108.694 Y91.618 E27.42305
G0 X108.711 Y91.817
G0 X108.214 Y91.86
G0 X107.905 Y91.669
;TYPE:SKIN
G1 X108.057 Y93.374 E27.50845
G1 X110.2 Y116.32 E28.65822
G1 X89.799 Y116.319 E29.67603
G1 X92.097 Y91.647 E30.91224
G1 X92.126 Y90.903 E30.94939
G1 X92.254 Y90.01 E30.9944
G1 X92.482 Y89.141 E31.03922
G1 X92.807 Y88.3 E31.0842
G1 X93.231 Y87.495 E31.12959
G1 X93.732 Y86.761 E31.17393
G1 X94.333 Y86.063 E31.21988
G1 X94.985 Y85.466 E31.26399
G1 X95.736 Y84.921 E31.31028
G1 X96.507 Y84.484 E31.3545
G1 X97.334 Y84.135 E31.39928
G1 X98.218 Y83.874 E31.44526
G1 X99.088 Y83.725 E31.4893
G1 X100 Y83.672 E31.53488
G1 X100.912 Y83.725 E31.58045
G1 X101.782 Y83.874 E31.62449
G1 X102.666 Y84.135 E31.67048
G1 X103.493 Y84.484 E31.71526
G1 X104.264 Y84.921 E31.75947
G1 X105.015 Y85.466 E31.80577
G1 X105.667 Y86.063 E31.84987
G1 X106.268 Y86.761 E31.89582
G1 X106.769 Y87.495 E31.94016
G1 X107.193 Y88.3 E31.98555
G1 X107.518 Y89.141 E32.03053
G1 X107.746 Y90.011 E32.0754
G1 X107.873 Y90.903 E32.12035
G1 X107.905 Y91.669 E32.1586
G0 X106.167 Y86.933
G1 X104.675 Y85.441 E32.26387
G1 X104.605 Y85.371
G0 X103.239 Y84.571
G1 X107.012 Y88.344 E32.53008
G1 X107.082 Y88.414
G0 X107.364 Y89.262
G1 X102.324 Y84.222 E32.88568
G1 X102.254 Y84.152
G0 X101.553 Y84.017
G1 X107.565 Y90.028 E33.30982
G1 X107.635 Y90.098
G0 X107.66 Y90.689
G1 X100.875 Y83.904 E33.78854
G1 X100.805 Y83.834
G0 X100.274 Y83.869
G1 X107.708 Y91.303 E34.31305
G1 X107.778 Y91.373
G0 X107.744 Y91.905
G1 X99.709 Y83.869 E34.88
G1 X99.639 Y83.799
G0 X99.174 Y83.901
G1 X107.799 Y92.526 E35.48854
G1 X107.869 Y92.596
G0 X107.855 Y93.147
G1 X98.684 Y83.976 E36.1356
G1 X98.614 Y83.906
G0 X98.207 Y84.065
G1 X107.912 Y93.77 E36.82034
G1 X107.982 Y93.84
G0 X107.97 Y94.394
G1 X97.77 Y84.194 E37.54001
G1 X97.7 Y84.124
G0 X97.338 Y84.328
G1 X108.029 Y95.018 E38.29428
G1 X108.099 Y95.088
G0 X108.087 Y95.642
G1 X96.941 Y84.496 E39.08069
G1 X96.871 Y84.426
G0 X96.547 Y84.668
G1 X108.146 Y96.266 E39.89903
G1 X108.216 Y96.336
G0 X108.204 Y96.89
G1 X96.186 Y84.872 E40.74696
G1 X96.116 Y84.802
G0 X95.826 Y85.078
G1 X108.262 Y97.514 E41.62439
G1 X108.332 Y97.584
G0 X108.32 Y98.138
G1 X95.498 Y85.315 E42.52908
G1 X95.428 Y85.245
G0 X95.17 Y85.553
G1 X108.379 Y98.763 E43.46109
G1 X108.449 Y98.833
G0 X108.437 Y99.386
G1 X94.868 Y85.817 E44.41845
G1 X94.798 Y85.747
G0 X94.573 Y86.088
G1 X108.496 Y100.011 E45.40079
G1 X108.566 Y100.081
G0 X108.554 Y100.634
G1 X94.298 Y86.378 E46.40663
G1 X94.228 Y86.308
G0 X94.036 Y86.682
G1 X108.613 Y101.259 E47.43512
G1 X108.683 Y101.329
G0 X108.67 Y101.882
G1 X93.786 Y86.998 E48.48527
G1 X93.716 Y86.928
G0 X93.557 Y87.334
G1 X108.729 Y102.507 E49.55577
G1 X108.799 Y102.577
G0 X108.787 Y103.13
G1 X93.335 Y87.679 E50.64595
G1 X93.265 Y87.609
G0 X93.14 Y88.049
G1 X108.845 Y103.754 E51.75403
G1 X108.915 Y103.824
G0 X108.904 Y104.378
G1 X92.951 Y88.425 E52.8796
G1 X92.881 Y88.355
G0 X92.793 Y88.833
G1 X108.962 Y105.002 E54.02041
G1 X109.032 Y105.072
G0 X109.021 Y105.626
G1 X92.638 Y89.244 E55.17628
G1 X92.568 Y89.174
G0 X92.521 Y89.692
G1 X109.078 Y106.25 E56.3445
G1 X109.148 Y106.32
G0 X109.137 Y106.874
G1 X92.414 Y90.151 E57.5244
G1 X92.344 Y90.081
G0 X92.343 Y90.646
G1 X109.195 Y107.498 E58.7134
G1 X109.265 Y107.568
G0 X109.254 Y108.122
G1 X92.295 Y91.163 E59.90995
G1 X92.225 Y91.093
G0 X92.271 Y91.705
G1 X109.312 Y108.746 E61.11228
G1 X109.382 Y108.816
G0 X109.371 Y109.371
G1 X92.222 Y92.222 E62.32224
G1 X92.152 Y92.152
G0 X92.174 Y92.74
G1 X109.429 Y109.994 E63.53964
G1 X109.499 Y110.064
G0 X109.487 Y110.619
G1 X92.126 Y93.258 E64.76455
G1 X92.056 Y93.188
G0 X92.078 Y93.775
G1 X109.545 Y111.242 E65.99694
G1 X109.615 Y111.312
G0 X109.604 Y111.867
G1 X92.029 Y94.292 E67.23695
G1 X91.959 Y94.222
G0 X91.981 Y94.81
G1 X109.662 Y112.49 E68.48441
G1 X109.732 Y112.56
G0 X109.721 Y113.115
G1 X91.933 Y95.327 E69.73944
G1 X91.863 Y95.257
G0 X91.885 Y95.845
G1 X109.779 Y113.738 E71.00193
G1 X109.849 Y113.808
G0 X109.837 Y114.363
G1 X91.837 Y96.363 E72.27193
G1 X91.767 Y96.293
G0 X91.789 Y96.88
G1 X109.895 Y114.986 E73.5494
G1 X109.965 Y115.056
G0 X109.954 Y115.611
G1 X91.741 Y97.398 E74.83443
G1 X91.671 Y97.328
G0 X91.692 Y97.915
G1 X109.916 Y116.138 E76.12019
G1 X109.986 Y116.208
G0 X109.35 Y116.138
G1 X91.644 Y98.432 E77.36945
G1 X91.574 Y98.362
G0 X91.596 Y98.95
G1 X108.784 Y116.138 E78.58215
G1 X108.854 Y116.208
G0 X108.219 Y116.138
G1 X91.548 Y99.468 E79.75835
G1 X91.478 Y99.398
G0 X91.5 Y99.985
G1 X107.653 Y116.138 E80.89803
G1 X107.723 Y116.208
G0 X107.087 Y116.138
G1 X91.452 Y100.503 E82.00116
G1 X91.382 Y100.433
G0 X91.403 Y101.02
G1 X106.522 Y116.138 E83.06785
G1 X106.592 Y116.208
G0 X105.956 Y116.138
G1 X91.355 Y101.537 E84.09803
G1 X91.285 Y101.467
G0 X91.307 Y102.055
G1 X105.39 Y116.138 E85.09167
G1 X105.46 Y116.208
G0 X104.825 Y116.138
G1 X91.259 Y102.572 E86.04882
G1 X91.189 Y102.502
G0 X91.211 Y103.09
G1 X104.259 Y116.138 E86.96943
G1 X104.329 Y116.208
G0 X103.693 Y116.138
G1 X91.163 Y103.608 E87.85349
G1 X91.093 Y103.538
G0 X91.114 Y104.125
G1 X103.127 Y116.138 E88.70107
G1 X103.197 Y116.208
G0 X102.562 Y116.138
G1 X91.066 Y104.642 E89.51217
G1 X90.996 Y104.572
G0 X91.018 Y105.16
G1 X101.996 Y116.138 E90.28673
G1 X102.066 Y116.208
G0 X101.43 Y116.138
G1 X90.969 Y105.677 E91.02481
G1 X90.899 Y105.607
G0 X90.921 Y106.195
G1 X100.865 Y116.138 E91.72638
G1 X100.935 Y116.208
G0 X100.299 Y116.138
G1 X90.873 Y106.713 E92.3914
G1 X90.803 Y106.643
G0 X90.825 Y107.23
G1 X99.733 Y116.138 E93.0199
G1 X99.803 Y116.208
G0 X99.167 Y116.138
G1 X90.776 Y107.747 E93.61194
G1 X90.706 Y107.677
G0 X90.728 Y108.265
G1 X98.601 Y116.138 E94.16742
G1 X98.671 Y116.208
G0 X98.036 Y116.138
G1 X90.68 Y108.782 E94.68642
G1 X90.61 Y108.712
G0 X90.632 Y109.3
G1 X97.47 Y116.138 E95.16888
G1 X97.54 Y116.208
G0 X96.904 Y116.138
G1 X90.584 Y109.817 E95.61483
G1 X90.514 Y109.747
G0 X90.536 Y110.335
G1 X96.339 Y116.138 E96.02426
G1 X96.409 Y116.208
G0 X95.773 Y116.138
G1 X90.488 Y110.853 E96.39714
G1 X90.418 Y110.783
G0 X90.439 Y111.37
G1 X95.207 Y116.138 E96.73355
G1 X95.277 Y116.208
G0 X94.642 Y116.138
G1 X90.391 Y111.887 E97.03348
G1 X90.321 Y111.817
G0 X90.343 Y112.405
G1 X94.076 Y116.138 E97.29687
G1 X94.146 Y116.208
G0 X93.51 Y116.138
G1 X90.295 Y112.922 E97.52374
G1 X90.225 Y112.852
G0 X90.247 Y113.44
G1 X92.944 Y116.138 E97.71406
G1 X93.014 Y116.208
G0 X92.379 Y116.138
G1 X90.199 Y113.958 E97.86787
G1 X90.129 Y113.888
G0 X90.15 Y114.474
G1 X91.813 Y116.138 E97.98524
G1 X91.883 Y116.208
G0 X91.247 Y116.138
G1 X90.102 Y114.992 E98.06606
G1 X90.032 Y114.922
G0 X90.054 Y115.51
G1 X90.682 Y116.138 E98.11037
G1 X90.752 Y116.208
G0 X90.116 Y116.138
G1 X90.006 Y116.027 E98.11817
G0 X108.203 Y91.74
G0 X108.59 Y91.708
;TIME_ELAPSED:90.392947
;LAYER:1
M140 S60
M106 S255
G0 F1785 X108.59 Y91.708 Z0.475
;TYPE:WALL-INNER
G1 F2205 X110.882 Y116.334 E98.83795
