;FLAVOR:Marlin
;TIME:365
;Filament used: 0.217752m
;Layer height: 0.175
;Generated with Cura_SteamEngine 3.1.0
M190 S60
M104 S200
M109 S200
M82 ; absolute extrusion mode
G21       ;metric values
G90       ;absolute positioning
M82       ;set extruder to absolute mode
M107      ;start with the fan off
G28       ;home
G1 Z15.0 F840
G92 E0    ;zero the extruded length
G1 F200 E3              ;extrude 3mm of feed stock
G92 E0                  ;zero the extruded length again
G1 F840
M117 Printing...
;LAYER_COUNT:70
;LAYER:0
M107
G0 F1470 X100.991 Y97.012 Z0.3
;TYPE:SKIRT
G1 X101.61 Y96.369 E0.04453
G1 X101.883 Y96.119 E0.063
G1 X102.941 Y95.262 E0.13092
G1 X103.38 Y94.966 E0.15734
G1 X104.925 Y94.114 E0.24536
G1 X105.469 Y93.881 E0.27489
G1 X107.169 Y93.343 E0.36385
G1 X107.548 Y93.25 E0.38332
G1 X108.098 Y93.152 E0.41119
G1 X108.585 Y93.105 E0.4356
G1 X109.073 Y93.139 E0.46
G1 X109.55 Y93.251 E0.48445
G1 X110.001 Y93.44 E0.50884
G1 X110.417 Y93.699 E0.53329
G1 X110.784 Y94.023 E0.55772
G1 X111.094 Y94.402 E0.58214
G1 X111.338 Y94.826 E0.60655
G1 X111.51 Y95.285 E0.63101
G1 X111.592 Y95.67 E0.65064
G1 X112.025 Y98.625 E0.79964
G1 X112.055 Y99.165 E0.82663
G1 X111.892 Y103.797 E1.05786
G1 X111.896 Y106.522 E1.19381
G1 X112.052 Y110.769 E1.40584
G1 X112.025 Y111.295 E1.43211
G1 X111.603 Y114.307 E1.58385
G1 X111.496 Y114.785 E1.60829
G1 X111.312 Y115.239 E1.63273
G1 X111.057 Y115.657 E1.65716
G1 X110.738 Y116.027 E1.68153
G1 X110.363 Y116.342 E1.70596
G1 X109.941 Y116.59 E1.73038
G1 X109.485 Y116.767 E1.75479
G1 X109.006 Y116.868 E1.77921
G1 X108.517 Y116.889 E1.80363
G1 X107.942 Y116.811 E1.83258
G1 X106.389 Y116.444 E1.91219
G1 X105.925 Y116.293 E1.93654
G1 X104.675 Y115.772 E2.0041
G1 X104.264 Y115.563 E2.0271
G1 X103.158 Y114.887 E2.09177
G1 X102.757 Y114.593 E2.11658
G1 X101.438 Y113.449 E2.20369
G1 X101.038 Y113.027 E2.2327
G1 X99.957 Y111.64 E2.32043
G1 X99.639 Y111.136 E2.35016
G1 X98.84 Y109.535 E2.43943
G1 X98.623 Y108.96 E2.47009
G1 X98.129 Y107.087 E2.56673
G1 X98.035 Y106.491 E2.59683
G1 X97.946 Y104.914 E2.67563
G1 X97.965 Y104.363 E2.70314
G1 X98.192 Y102.596 E2.79202
G1 X98.324 Y102.025 E2.82126
G1 X98.873 Y100.387 E2.90745
G1 X99.041 Y99.984 E2.92923
G1 X99.449 Y99.179 E2.97425
G1 X99.681 Y98.795 E2.99664
G1 X100.708 Y97.353 E3.08496
G1 X100.991 Y97.012 E3.10707
G0 X101.279 Y97.29
G1 X101.898 Y96.647 E3.1516
G1 X102.134 Y96.43 E3.16759
G1 X103.192 Y95.573 E3.23552
G1 X103.573 Y95.316 E3.25845
G1 X105.118 Y94.464 E3.34647
G1 X105.59 Y94.262 E3.37209
G1 X107.29 Y93.724 E3.46104
G1 X107.618 Y93.643 E3.4779
G1 X108.168 Y93.545 E3.50577
G1 X108.622 Y93.505 E3.52851
G1 X109.076 Y93.545 E3.55125
G1 X109.516 Y93.663 E3.57398
G1 X109.928 Y93.856 E3.59667
G1 X110.301 Y94.118 E3.61941
G1 X110.622 Y94.441 E3.64213
G1 X110.882 Y94.816 E3.6649
G1 X111.072 Y95.23 E3.68763
G1 X111.197 Y95.728 E3.71324
G1 X111.63 Y98.683 E3.86224
G1 X111.655 Y99.151 E3.88562
G1 X111.492 Y103.784 E4.11691
G1 X111.496 Y106.538 E4.25431
G1 X111.652 Y110.784 E4.46628
G1 X111.629 Y111.24 E4.48906
G1 X111.207 Y114.252 E4.6408
G1 X111.104 Y114.696 E4.66354
G1 X110.926 Y115.115 E4.68625
G1 X110.677 Y115.497 E4.709
G1 X110.365 Y115.829 E4.73173
G1 X110 Y116.102 E4.75447
G1 X109.593 Y116.307 E4.7772
G1 X109.157 Y116.437 E4.7999
G1 X108.704 Y116.49 E4.82266
G1 X108.034 Y116.421 E4.85626
G1 X106.481 Y116.054 E4.93587
G1 X106.079 Y115.924 E4.95695
G1 X104.829 Y115.403 E5.02452
G1 X104.473 Y115.221 E5.04446
G1 X103.367 Y114.545 E5.10913
G1 X103.019 Y114.291 E5.13063
G1 X101.7 Y113.147 E5.21773
G1 X101.353 Y112.781 E5.2429
G1 X100.272 Y111.394 E5.33063
G1 X99.997 Y110.957 E5.35639
G1 X99.198 Y109.356 E5.44566
G1 X99.01 Y108.858 E5.47221
G1 X98.516 Y106.985 E5.56885
G1 X98.434 Y106.469 E5.59492
G1 X98.345 Y104.892 E5.67372
G1 X98.362 Y104.414 E5.69758
G1 X98.589 Y102.647 E5.78646
G1 X98.703 Y102.152 E5.81181
G1 X99.252 Y100.514 E5.89799
G1 X99.398 Y100.165 E5.91687
G1 X99.806 Y99.36 E5.96189
G1 X100.007 Y99.027 E5.9813
G1 X101.034 Y97.585 E6.06962
G1 X101.279 Y97.29 E6.08875
G0 X101.567 Y97.567
G1 X102.186 Y96.924 E6.13328
G1 X102.386 Y96.74 E6.14684
G1 X103.444 Y95.883 E6.21477
G1 X103.767 Y95.667 E6.23415
G1 X105.312 Y94.815 E6.32218
G1 X105.71 Y94.644 E6.34379
G1 X107.41 Y94.106 E6.43275
G1 X107.688 Y94.037 E6.44704
G1 X108.238 Y93.939 E6.47491
G1 X108.656 Y93.905 E6.49583
G1 X109.072 Y93.951 E6.51671
G1 X109.473 Y94.075 E6.53765
G1 X109.842 Y94.273 E6.55855
G1 X110.167 Y94.537 E6.57944
G1 X110.437 Y94.858 E6.60036
G1 X110.64 Y95.224 E6.62124
G1 X110.801 Y95.786 E6.65041
G1 X111.234 Y98.741 E6.79941
G1 X111.256 Y99.137 E6.8192
G1 X111.092 Y103.798 E7.05188
G1 X111.096 Y106.524 E7.18788
G1 X111.253 Y110.798 E7.40125
G1 X111.233 Y111.184 E7.42054
G1 X110.811 Y114.196 E7.57227
G1 X110.713 Y114.604 E7.59321
G1 X110.54 Y114.986 E7.61413
G1 X110.298 Y115.328 E7.63503
G1 X109.996 Y115.617 E7.65589
G1 X109.644 Y115.845 E7.67681
G1 X109.255 Y116.001 E7.69772
G1 X108.843 Y116.081 E7.71866
G1 X108.424 Y116.081 E7.73956
G1 X108.126 Y116.032 E7.75463
G1 X106.573 Y115.665 E7.83424
G1 X106.233 Y115.555 E7.85207
G1 X104.983 Y115.034 E7.91963
G1 X104.682 Y114.88 E7.9365
G1 X103.576 Y114.204 E8.00117
G1 X103.282 Y113.989 E8.01934
G1 X101.963 Y112.845 E8.10645
G1 X101.669 Y112.535 E8.12777
G1 X100.588 Y111.148 E8.2155
G1 X100.355 Y110.778 E8.23731
G1 X99.556 Y109.177 E8.32658
G1 X99.397 Y108.756 E8.34903
G1 X98.903 Y106.883 E8.44567
G1 X98.833 Y106.446 E8.46775
G1 X98.744 Y104.869 E8.54655
G1 X98.759 Y104.465 E8.56672
G1 X98.986 Y102.698 E8.6556
G1 X99.082 Y102.279 E8.67705
G1 X99.631 Y100.641 E8.76324
G1 X99.755 Y100.345 E8.77925
G1 X100.163 Y99.54 E8.82427
G1 X100.333 Y99.259 E8.84066
G1 X101.36 Y97.817 E8.92898
G1 X101.567 Y97.567 E8.94518
G0 X101.855 Y97.845
G1 X102.474 Y97.202 E8.9897
G1 X102.638 Y97.051 E9.00083
G1 X103.696 Y96.194 E9.06875
G1 X103.96 Y96.017 E9.08461
G1 X105.505 Y95.165 E9.17263
G1 X105.831 Y95.025 E9.19034
G1 X107.531 Y94.487 E9.27929
G1 X107.758 Y94.431 E9.29096
G1 X108.308 Y94.333 E9.31883
G1 X108.686 Y94.306 E9.33774
G1 X109.061 Y94.359 E9.35663
G1 X109.417 Y94.489 E9.37554
G1 X109.738 Y94.691 E9.39446
G1 X110.009 Y94.956 E9.41337
G1 X110.219 Y95.271 E9.43226
G1 X110.358 Y95.624 E9.45119
G1 X110.405 Y95.844 E9.46241
G1 X110.838 Y98.799 E9.61141
G1 X110.856 Y99.123 E9.6276
G1 X110.692 Y103.784 E9.86028
G1 X110.696 Y106.54 E9.99778
G1 X110.853 Y110.813 E10.2111
G1 X110.837 Y111.129 E10.22689
G1 X110.415 Y114.141 E10.37863
G1 X110.323 Y114.508 E10.3975
G1 X110.156 Y114.849 E10.41645
G1 X109.922 Y115.147 E10.43535
G1 X109.63 Y115.389 E10.45427
G1 X109.295 Y115.565 E10.47315
G1 X108.93 Y115.666 E10.49204
G1 X108.551 Y115.689 E10.51099
G1 X108.218 Y115.643 E10.52776
G1 X106.665 Y115.276 E10.60737
G1 X106.387 Y115.185 E10.62197
G1 X105.137 Y114.664 E10.68953
G1 X104.89 Y114.539 E10.70334
G1 X103.784 Y113.863 E10.76801
G1 X103.544 Y113.687 E10.78286
G1 X102.225 Y112.543 E10.86996
G1 X101.984 Y112.29 E10.8874
G1 X100.903 Y110.903 E10.97513
G1 X100.712 Y110.6 E10.993
G1 X99.913 Y108.999 E11.08227
G1 X99.784 Y108.654 E11.10064
G1 X99.29 Y106.781 E11.19728
G1 X99.233 Y106.423 E11.21537
G1 X99.144 Y104.846 E11.29417
G1 X99.156 Y104.516 E11.31065
G1 X99.383 Y102.749 E11.39953
G1 X99.461 Y102.406 E11.41707
G1 X100.01 Y100.768 E11.50326
G1 X100.111 Y100.526 E11.51635
G1 X100.519 Y99.721 E11.56137
G1 X100.659 Y99.491 E11.5748
G1 X101.686 Y98.049 E11.66313
G1 X101.855 Y97.845 E11.67634
G0 X102.143 Y98.122
G1 X102.762 Y97.479 E11.72087
G1 X102.89 Y97.362 E11.72952
G1 X103.948 Y96.505 E11.79745
G1 X104.153 Y96.367 E11.80978
G1 X105.698 Y95.515 E11.8978
G1 X105.952 Y95.406 E11.91159
G1 X107.652 Y94.868 E12.00055
G1 X107.828 Y94.825 E12.00959
G1 X108.378 Y94.727 E12.03746
G1 X108.712 Y94.708 E12.05415
G1 X109.04 Y94.768 E12.07079
G1 X109.345 Y94.905 E12.08747
G1 X109.609 Y95.11 E12.10415
G1 X109.817 Y95.372 E12.12084
G1 X109.956 Y95.675 E12.13747
G1 X110.009 Y95.902 E12.1491
G1 X110.442 Y98.857 E12.2981
G1 X110.456 Y99.109 E12.31069
G1 X110.292 Y103.771 E12.54342
G1 X110.296 Y106.555 E12.68231
G1 X110.453 Y110.828 E12.89564
G1 X110.44 Y111.073 E12.90788
G1 X110.018 Y114.085 E13.05962
G1 X109.933 Y114.408 E13.07628
G1 X109.773 Y114.702 E13.09298
G1 X109.549 Y114.949 E13.10961
G1 X109.272 Y115.136 E13.12629
G1 X108.959 Y115.252 E13.14294
G1 X108.627 Y115.291 E13.15962
G1 X108.31 Y115.253 E13.17555
G1 X106.757 Y114.886 E13.25516
G1 X106.54 Y114.816 E13.26654
G1 X105.29 Y114.295 E13.3341
G1 X105.099 Y114.198 E13.34479
G1 X103.993 Y113.522 E13.40946
G1 X103.806 Y113.385 E13.42102
G1 X102.487 Y112.241 E13.50813
G1 X102.3 Y112.044 E13.52168
G1 X101.219 Y110.657 E13.60941
G1 X101.07 Y110.421 E13.62334
G1 X100.271 Y108.82 E13.71261
G1 X100.17 Y108.552 E13.72689
G1 X99.676 Y106.679 E13.82353
G1 X99.632 Y106.401 E13.83758
G1 X99.543 Y104.824 E13.91638
G1 X99.552 Y104.567 E13.92921
G1 X99.779 Y102.8 E14.01809
G1 X99.841 Y102.533 E14.03176
G1 X100.39 Y100.895 E14.11795
G1 X100.468 Y100.707 E14.12811
G1 X100.876 Y99.902 E14.17313
G1 X100.985 Y99.723 E14.18359
G1 X102.012 Y98.281 E14.27191
G1 X102.143 Y98.122 E14.28219
G1 F600 E11.28219
G0 F1470 X103.402 Y97.87
G0 X104.309 Y98.779
G0 X108.037 Y96.824
G0 X108.136 Y96.811
;TYPE:WALL-INNER
G1 F600 E14.28219
G1 F1470 X108.15 Y96.911 E14.28723
G1 X108.392 Y98.587 E14.37171
G1 X108.212 Y98.624 E14.38088
G1 X107.467 Y98.872 E14.42005
G1 X106.758 Y99.207 E14.45917
G1 X106.093 Y99.624 E14.49833
G1 X105.481 Y100.117 E14.53754
G1 X104.933 Y100.678 E14.57667
G1 X104.455 Y101.301 E14.61584
G1 X104.055 Y101.975 E14.65494
G1 X103.738 Y102.694 E14.69415
G1 X103.507 Y103.445 E14.73335
G1 X103.368 Y104.217 E14.77248
G1 X103.321 Y105 E14.81162
G1 X103.368 Y105.783 E14.85075
G1 X103.507 Y106.555 E14.88988
G1 X103.738 Y107.306 E14.92908
G1 X104.055 Y108.025 E14.96829
G1 X104.455 Y108.699 E15.00739
G1 X104.933 Y109.322 E15.04656
G1 X105.481 Y109.883 E15.08569
G1 X106.093 Y110.376 E15.1249
G1 X106.758 Y110.793 E15.16406
G1 X107.467 Y111.128 E15.20318
G1 X108.212 Y111.376 E15.24235
G1 X108.392 Y111.413 E15.25152
G1 X108.151 Y113.088 E15.33595
G1 X108.137 Y113.188 E15.34099
G1 X108.135 Y113.199 E15.34154
G1 X107.915 Y113.156 E15.34463
G1 X107.818 Y113.127 E15.34884
G1 X107.12 Y112.918 E15.38519
G1 X106.355 Y112.604 E15.42645
G1 X105.629 Y112.219 E15.46745
G1 X104.934 Y111.757 E15.50908
G1 X104.301 Y111.24 E15.54986
G1 X103.707 Y110.649 E15.59166
G1 X103.186 Y110.016 E15.63256
G1 X102.72 Y109.322 E15.67427
G1 X102.339 Y108.613 E15.71442
G1 X102.014 Y107.827 E15.75686
G1 X101.775 Y107.043 E15.79775
G1 X101.614 Y106.239 E15.83866
G1 X101.533 Y105.414 E15.88001
G1 X101.533 Y104.586 E15.92132
G1 X101.614 Y103.761 E15.96268
G1 X101.775 Y102.957 E16.00359
G1 X102.014 Y102.173 E16.04448
G1 X102.339 Y101.387 E16.08691
G1 X102.724 Y100.672 E16.12743
G1 X103.186 Y99.984 E16.16877
G1 X103.707 Y99.351 E16.20967
G1 X104.296 Y98.765 E16.25112
G1 X104.941 Y98.237 E16.29271
G1 X105.629 Y97.781 E16.33389
G1 X106.355 Y97.396 E16.37489
G1 X107.12 Y97.082 E16.41614
G1 X107.818 Y96.873 E16.4525
G1 X107.915 Y96.844 E16.4567
G1 X108.135 Y96.801 E16.46788
G1 X108.136 Y96.811
G0 X108.5 Y96.535
;TYPE:WALL-OUTER
G1 X108.842 Y98.903 E16.58725
G1 X108.316 Y99.011 E16.61404
G1 X107.616 Y99.244 E16.65085
G1 X106.95 Y99.559 E16.6876
G1 X106.325 Y99.95 E16.72438
G1 X105.751 Y100.413 E16.76117
G1 X105.236 Y100.94 E16.79794
G1 X104.787 Y101.526 E16.83477
G1 X104.411 Y102.159 E16.8715
G1 X104.113 Y102.834 E16.90831
G1 X103.896 Y103.539 E16.94511
G1 X103.766 Y104.264 E16.98186
G1 X103.722 Y105 E17.01864
G1 X103.766 Y105.736 E17.05543
G1 X103.896 Y106.461 E17.09218
G1 X104.113 Y107.166 E17.12898
G1 X104.411 Y107.841 E17.16579
G1 X104.787 Y108.474 E17.20252
G1 X105.236 Y109.06 E17.23935
G1 X105.751 Y109.587 E17.27611
G1 X106.325 Y110.05 E17.3129
G1 X106.95 Y110.441 E17.34968
G1 X107.616 Y110.756 E17.38644
G1 X108.316 Y110.989 E17.42325
G1 X108.842 Y111.097 E17.45004
G1 X108.5 Y113.465 E17.5694
G1 X108.471 Y113.672 E17.57983
G1 X108.265 Y113.632 E17.58651
G1 X107.823 Y113.546 E17.60897
G1 X106.985 Y113.295 E17.65261
G1 X106.19 Y112.969 E17.69548
G1 X105.423 Y112.562 E17.7388
G1 X104.692 Y112.076 E17.7826
G1 X104.032 Y111.537 E17.82511
G1 X103.412 Y110.92 E17.86875
G1 X102.865 Y110.256 E17.91167
G1 X102.383 Y109.538 E17.95481
G1 X101.974 Y108.777 E17.99791
G1 X101.637 Y107.964 E18.04182
G1 X101.388 Y107.146 E18.08448
G1 X101.218 Y106.296 E18.12773
G1 X101.133 Y105.433 E18.17099
G1 X101.133 Y104.567 E18.2142
G1 X101.218 Y103.704 E18.25746
G1 X101.388 Y102.854 E18.30071
G1 X101.637 Y102.036 E18.34336
G1 X101.974 Y101.223 E18.38727
G1 X102.383 Y100.462 E18.43037
G1 X102.865 Y99.744 E18.47352
G1 X103.412 Y99.08 E18.51644
G1 X104.027 Y98.468 E18.55972
G1 X104.699 Y97.918 E18.60305
G1 X105.423 Y97.438 E18.64639
G1 X106.19 Y97.031 E18.68971
G1 X106.985 Y96.705 E18.73257
G1 X107.823 Y96.454 E18.77622
G1 X108.265 Y96.368 E18.79868
G1 X108.471 Y96.328 E18.80915
G1 X108.5 Y96.535 E18.8158
G0 X108.528 Y96.732
G0 X108.078 Y96.882
G0 X107.81 Y97.283
;TYPE:SKIN
G1 X107.956 Y98.297 E18.86691
G1 X107.321 Y98.509 E18.90031
G1 X106.571 Y98.864 E18.94171
G1 X105.867 Y99.306 E18.98318
G1 X105.218 Y99.828 E19.02473
G1 X104.638 Y100.422 E19.06615
G1 X104.131 Y101.082 E19.10767
G1 X103.708 Y101.796 E19.14907
G1 X103.372 Y102.557 E19.19058
G1 X103.127 Y103.353 E19.23213
G1 X102.98 Y104.17 E19.27354
G1 X102.931 Y105 E19.31502
G1 X102.98 Y105.83 E19.3565
G1 X103.127 Y106.647 E19.39792
G1 X103.372 Y107.443 E19.43947
G1 X103.708 Y108.204 E19.48097
G1 X104.131 Y108.918 E19.52238
G1 X104.638 Y109.578 E19.5639
G1 X105.218 Y110.172 E19.60532
G1 X105.867 Y110.694 E19.64687
G1 X106.571 Y111.136 E19.68834
G1 X107.321 Y111.491 E19.72974
G1 X107.956 Y111.703 E19.76314
G1 X107.81 Y112.717 E19.81425
G1 X107.25 Y112.55 E19.8434
G1 X106.524 Y112.251 E19.88257
G1 X105.827 Y111.881 E19.92194
G1 X105.165 Y111.442 E19.96157
G1 X104.564 Y110.951 E20.00029
G1 X103.994 Y110.384 E20.0404
G1 X103.499 Y109.782 E20.07929
G1 X103.051 Y109.115 E20.11937
G1 X102.696 Y108.453 E20.15685
G1 X102.379 Y107.688 E20.19816
G1 X102.151 Y106.941 E20.23713
G1 X102 Y106.186 E20.27554
G1 X101.923 Y105.395 E20.31519
G1 X101.923 Y104.605 E20.3546
G1 X102 Y103.814 E20.39425
G1 X102.151 Y103.059 E20.43266
G1 X102.379 Y102.312 E20.47163
G1 X102.696 Y101.546 E20.51299
G1 X103.055 Y100.879 E20.55078
G1 X103.499 Y100.218 E20.59051
G1 X103.994 Y99.616 E20.62939
G1 X104.559 Y99.054 E20.66915
G1 X105.176 Y98.549 E20.70893
G1 X105.821 Y98.122 E20.74752
G1 X106.525 Y97.748 E20.78729
G1 X107.25 Y97.45 E20.8264
G1 X107.81 Y97.283 E20.85555
G0 X107.257 Y97.64
G1 X107.749 Y98.132 E20.89026
G0 X107.357 Y98.306
G1 X106.856 Y97.805 E20.92561
G0 X106.467 Y97.982
G1 X106.963 Y98.478 E20.96061
G0 X106.58 Y98.66
G1 X106.099 Y98.179 E20.99454
G0 X105.744 Y98.39
G1 X106.222 Y98.869 E21.02831
G0 X105.875 Y99.087
G1 X105.403 Y98.615 E21.06161
G0 X105.081 Y98.859
G1 X105.551 Y99.328 E21.09473
G0 X105.237 Y99.58
G1 X104.77 Y99.113 E21.12768
G0 X104.479 Y99.388
G1 X104.943 Y99.851 E21.16038
G0 X104.663 Y100.138
G1 X104.195 Y99.67 E21.1934
G0 X103.931 Y99.972
G1 X104.397 Y100.438 E21.22628
G0 X104.152 Y100.758
G1 X103.676 Y100.282 E21.25987
G0 X103.446 Y100.617
G1 X103.917 Y101.088 E21.2931
G0 X103.707 Y101.444
G1 X103.219 Y100.956 E21.32753
G0 X103.019 Y101.322
G1 X103.505 Y101.808 E21.36182
G0 X103.331 Y102.2
G1 X102.827 Y101.696 E21.39738
G0 X102.661 Y102.095
G1 X103.168 Y102.602 E21.43315
G0 X103.036 Y103.036
G1 X102.505 Y102.505 E21.47062
G0 X102.374 Y102.939
G1 X102.92 Y103.486 E21.50918
G0 X102.834 Y103.965
G1 X102.266 Y103.397 E21.54925
G1 X102.196 Y103.327
G0 X102.174 Y103.871
G1 X102.782 Y104.479 E21.59215
G1 X102.852 Y104.549
G0 X102.752 Y105.015
G1 X102.124 Y104.387 E21.63646
G1 X102.054 Y104.317
G0 X102.102 Y104.931
G1 X102.787 Y105.616 E21.68479
G1 X102.857 Y105.686
G0 X102.876 Y106.271
G1 X102.113 Y105.508 E21.73862
G1 X102.043 Y105.438
G0 X102.175 Y106.135
G1 X103.05 Y107.01 E21.80036
G1 X103.12 Y107.08
G0 X102.314 Y106.839
G1 X103.379 Y107.905 E21.87553
G1 X103.449 Y107.975
G0 X103.02 Y108.677
G1 X106.235 Y111.891 E22.10233
G1 X106.305 Y111.961
