;FLAVOR:Marlin
;TIME:32074
;Filament used: 22.4261m
;Layer height: 0.4
;Generated with Cura_SteamEngine 3.1.0
M190 S60
M104 S200
M109 S200
M82 ; absolute extrusion mode
G21       ;metric values
G90       ;absolute positioning
M82       ;set extruder to absolute mode
M107      ;start with the fan off
G28       ;home
G1 Z15.0 F840
G92 E0    ;zero the extruded length
G1 F200 E3              ;extrude 3mm of feed stock
G92 E0                  ;zero the extruded length again
G1 F840
M117 Printing...
;LAYER_COUNT:17
;LAYER:0
M107
G0 F1470 X7.966 Y24.873 Z0.3
;TYPE:SKIRT
G1 X8.472 Y24.776 E0.0257
G1 X9.63 Y24.722 E0.08354
G1 X9.714 Y24.72 E0.08773
G1 X201.314 Y24.734 E9.64669
G1 X201.691 Y24.774 E9.66561
G1 X202.16 Y24.945 E9.69051
G1 X202.44 Y25.094 E9.70634
G1 X202.754 Y25.306 E9.72524
G1 X203.016 Y25.579 E9.74412
G1 X203.216 Y25.902 E9.76307
G1 X203.322 Y26.178 E9.77782
G1 X203.453 Y26.626 E9.80111
G1 X203.525 Y27.132 E9.82661
G1 X203.456 Y183.239 E17.61482
G1 X203.416 Y183.616 E17.63373
G1 X203.298 Y183.976 E17.65263
G1 X203.107 Y184.303 E17.67153
G1 X202.852 Y184.583 E17.69042
G1 X202.64 Y184.745 E17.70373
G1 X202.3 Y184.967 E17.72399
G1 X201.963 Y185.14 E17.74289
G1 X201.597 Y185.238 E17.76179
G1 X201.316 Y185.26 E17.77585
G1 X8.732 Y185.27 E27.38391
G1 X8.2 Y185.19 E27.41075
G1 X7.977 Y185.121 E27.42239
G1 X7.629 Y184.971 E27.4413
G1 X7.32 Y184.752 E27.4602
G1 X7.11 Y184.534 E27.4753
G1 X6.905 Y184.281 E27.49154
G1 X6.699 Y183.963 E27.51045
G1 X6.564 Y183.609 E27.52935
G1 X6.504 Y183.148 E27.55254
G1 X6.477 Y27.115 E35.33706
G1 X6.501 Y26.819 E35.35187
G1 X6.556 Y26.489 E35.36857
G1 X6.658 Y26.124 E35.38747
G1 X6.833 Y25.788 E35.40637
G1 X7.098 Y25.475 E35.42683
G1 X7.322 Y25.264 E35.44219
G1 X7.623 Y25.034 E35.46109
G1 X7.966 Y24.873 E35.47999
G0 X8.173 Y25.227
G1 X8.491 Y25.176 E35.49606
G1 X9.649 Y25.122 E35.55389
G1 X9.714 Y25.12 E35.55714
G1 X201.314 Y25.134 E45.1161
G1 X201.646 Y25.174 E45.13278
G1 X201.972 Y25.298 E45.15018
G1 X202.252 Y25.447 E45.16601
G1 X202.526 Y25.638 E45.18267
G1 X202.747 Y25.889 E45.19936
G1 X202.938 Y26.29 E45.22152
G1 X203.069 Y26.738 E45.2448
G1 X203.125 Y27.132 E45.26466
G1 X203.056 Y183.239 E53.05287
G1 X203.016 Y183.57 E53.0695
G1 X202.899 Y183.883 E53.08617
G1 X202.71 Y184.159 E53.10286
G1 X202.421 Y184.41 E53.12196
G1 X202.081 Y184.632 E53.14222
G1 X201.782 Y184.78 E53.15886
G1 X201.316 Y184.86 E53.18245
G1 X8.732 Y184.87 E62.79051
G1 X8.318 Y184.807 E62.8114
G1 X8.095 Y184.738 E62.82304
G1 X7.79 Y184.602 E62.8397
G1 X7.421 Y184.282 E62.86407
G1 X7.216 Y184.029 E62.88032
G1 X7.038 Y183.747 E62.89695
G1 X6.933 Y183.43 E62.91362
G1 X6.904 Y183.148 E62.92776
G1 X6.877 Y27.115 E70.71228
G1 X6.896 Y26.885 E70.72379
G1 X6.951 Y26.555 E70.74048
G1 X7.045 Y26.234 E70.75717
G1 X7.212 Y25.945 E70.77382
G1 X7.372 Y25.766 E70.7858
G1 X7.596 Y25.555 E70.80115
G1 X7.865 Y25.357 E70.81782
G1 X8.173 Y25.227 E70.83449
G1 F600 E67.83449
G0 F1470 X8.728 Y25.856
G0 X8.888 Y27.138
G0 X10.6 Y27.144
G0 X10.621 Y27.241
;TYPE:WALL-INNER
G1 F600 E70.83449
G1 F1470 X10.277 Y27.345 E70.85242
G1 X9.954 Y27.508 E70.87047
G1 X9.935 Y27.522 E70.87165
G1 X9.665 Y27.722 E70.88841
G1 X9.415 Y27.983 E70.90645
G1 X9.267 Y28.201 E70.91959
G1 X9.213 Y28.282 E70.92445
G1 X9.064 Y28.61 E70.94242
G1 X8.972 Y28.96 E70.96048
G1 X8.942 Y29.319 E70.97845
G1 X8.972 Y29.679 E70.99647
G1 X9.064 Y30.028 E71.01448
G1 X9.213 Y30.357 E71.0325
G1 X9.264 Y30.433 E71.03706
G1 X9.415 Y30.655 E71.05046
G1 X9.664 Y30.916 E71.06845
G1 X9.955 Y31.131 E71.08651
G1 X10.277 Y31.293 E71.10449
G1 X10.621 Y31.398 E71.12243
G1 X10.979 Y31.445 E71.14045
G1 X11.341 Y31.429 E71.15852
G1 X11.693 Y31.353 E71.17649
G1 X12.027 Y31.218 E71.19446
G1 X12.333 Y31.029 E71.21241
G1 X12.605 Y30.792 E71.23041
G1 X12.832 Y30.51 E71.24847
G1 X13.008 Y30.196 E71.26643
G1 X13.127 Y29.856 E71.2844
G1 X13.189 Y29.5 E71.30243
G1 X13.189 Y29.139 E71.32044
G1 X13.127 Y28.783 E71.33846
G1 X13.008 Y28.443 E71.35644
G1 X12.831 Y28.127 E71.37451
G1 X12.604 Y27.847 E71.39249
G1 X12.333 Y27.609 E71.41048
G1 X12.182 Y27.516 E71.41933
G1 X12.027 Y27.421 E71.4284
G1 X11.693 Y27.285 E71.44639
G1 X11.339 Y27.21 E71.46445
G1 X10.979 Y27.194 E71.48242
G1 X10.621 Y27.241 E71.50044
G0 X10.6 Y27.144
G0 X11.344 Y27.171
G0 X12.045 Y27.386
G0 X43.281 Y49.824
G0 X43.302 Y49.921
G1 X42.957 Y50.026 E71.51843
G1 X42.634 Y50.188 E71.53646
G1 X42.344 Y50.404 E71.5545
G1 X42.096 Y50.664 E71.57242
G1 X41.894 Y50.962 E71.59038
G1 X41.745 Y51.291 E71.6084
G1 X41.653 Y51.64 E71.62641
G1 X41.623 Y52 E71.64443
G1 X41.653 Y52.36 E71.66245
G1 X41.745 Y52.709 E71.68046
G1 X41.894 Y53.038 E71.69848
G1 X42.096 Y53.336 E71.71644
G1 X42.344 Y53.596 E71.73437
G1 X42.634 Y53.812 E71.75241
G1 X42.957 Y53.974 E71.77044
G1 X43.302 Y54.079 E71.78843
G1 X43.659 Y54.126 E71.80639
G1 X44.022 Y54.11 E71.82452
G1 X44.374 Y54.034 E71.84249
G1 X44.708 Y53.899 E71.86046
G1 X45.016 Y53.71 E71.87849
G1 X45.286 Y53.472 E71.89644
G1 X45.511 Y53.192 E71.91436
G1 X45.689 Y52.877 E71.93242
G1 X45.808 Y52.536 E71.95043
G1 X45.87 Y52.18 E71.96846
G1 X45.87 Y51.82 E71.98642
G1 X45.808 Y51.464 E72.00445
G1 X45.689 Y51.124 E72.02242
G1 X45.511 Y50.807 E72.04056
G1 X45.286 Y50.528 E72.05844
G1 X45.016 Y50.29 E72.0764
G1 X44.708 Y50.101 E72.09443
G1 X44.374 Y49.966 E72.1124
G1 X44.022 Y49.89 E72.13037
G1 X43.659 Y49.874 E72.14849
G1 X43.302 Y49.921 E72.16646
G0 X43.281 Y49.824
G0 X42.614 Y50.154
G0 X42.065 Y50.639
G0 X41.708 Y51.278
G0 X41.608 Y51.862
G0 X43.391 Y151.337
G0 X43.412 Y151.434
G1 X43.152 Y151.514 E72.18003
G1 X42.911 Y151.635 E72.19348
G1 X42.69 Y151.797 E72.20715
G1 X42.503 Y151.995 E72.22074
G1 X42.352 Y152.218 E72.23418
G1 X42.24 Y152.466 E72.24775
G1 X42.17 Y152.729 E72.26133
G1 X42.148 Y153 E72.2749
G1 X42.17 Y153.271 E72.28846
G1 X42.24 Y153.534 E72.30204
G1 X42.352 Y153.782 E72.31562
G1 X42.503 Y154.005 E72.32905
G1 X42.69 Y154.203 E72.34264
G1 X42.911 Y154.365 E72.35631
G1 X43.152 Y154.486 E72.36976
G1 X43.412 Y154.566 E72.38334
G1 X43.683 Y154.601 E72.39697
G1 X43.954 Y154.589 E72.4105
G1 X44.22 Y154.532 E72.42407
G1 X44.471 Y154.43 E72.43759
G1 X44.702 Y154.288 E72.45112
G1 X44.907 Y154.109 E72.4647
G1 X45.078 Y153.897 E72.47828
G1 X45.21 Y153.66 E72.49182
G1 X45.301 Y153.403 E72.50542
G1 X45.346 Y153.136 E72.51893
G1 X45.346 Y152.864 E72.5325
G1 X45.301 Y152.597 E72.54601
G1 X45.21 Y152.34 E72.55961
G1 X45.078 Y152.103 E72.57314
G1 X44.907 Y151.891 E72.58673
G1 X44.702 Y151.712 E72.60031
G1 X44.471 Y151.57 E72.61384
G1 X44.22 Y151.468 E72.62735
G1 X43.954 Y151.411 E72.64093
G1 X43.683 Y151.399 E72.65446
G1 X43.412 Y151.434 E72.66809
G0 X43.391 Y151.337
G0 X42.664 Y151.768
G0 X42.318 Y152.199
G0 X42.15 Y152.67
G0 X41.995 Y156.826
G0 X42.016 Y156.923
G1 X41.84 Y156.977 E72.67728
G1 X41.671 Y157.061 E72.68669
G1 X41.521 Y157.175 E72.69609
G1 X41.393 Y157.307 E72.70527
G1 X41.289 Y157.462 E72.71458
G1 X41.212 Y157.629 E72.72375
G1 X41.163 Y157.812 E72.7332
G1 X41.148 Y158 E72.74261
G1 X41.163 Y158.187 E72.75197
G1 X41.212 Y158.369 E72.76138
G1 X41.289 Y158.538 E72.77064
G1 X41.393 Y158.693 E72.77995
G1 X41.523 Y158.827 E72.78927
G1 X41.67 Y158.937 E72.79843
G1 X41.837 Y159.022 E72.80778
G1 X42.016 Y159.077 E72.81712
G1 X42.204 Y159.102 E72.82658
G1 X42.393 Y159.093 E72.83602
G1 X42.574 Y159.053 E72.84527
G1 X42.745 Y158.983 E72.85449
G1 X42.903 Y158.888 E72.86369
G1 X43.046 Y158.763 E72.87316
G1 X43.162 Y158.619 E72.88239
G1 X43.255 Y158.454 E72.89184
G1 X43.317 Y158.276 E72.90124
G1 X43.348 Y158.093 E72.9105
G1 X43.348 Y157.907 E72.91978
G1 X43.317 Y157.724 E72.92904
G1 X43.255 Y157.546 E72.93844
G1 X43.162 Y157.381 E72.94789
G1 X43.046 Y157.237 E72.95712
G1 X42.903 Y157.112 E72.96659
G1 X42.745 Y157.017 E72.97579
G1 X42.574 Y156.947 E72.98501
G1 X42.393 Y156.907 E72.99426
G1 X42.204 Y156.898 E73.0037
G1 X42.016 Y156.923 E73.01316
G0 X41.995 Y156.826
G0 X44.994 Y156.826
G0 X45.015 Y156.923
G1 X44.841 Y156.977 E73.02225
G1 X44.678 Y157.058 E73.03133
G1 X44.522 Y157.173 E73.041
G1 X44.392 Y157.308 E73.05035
G1 X44.289 Y157.462 E73.05959
G1 X44.212 Y157.629 E73.06877
G1 X44.163 Y157.812 E73.07822
G1 X44.148 Y158 E73.08763
G1 X44.163 Y158.187 E73.09699
G1 X44.212 Y158.369 E73.10639
G1 X44.289 Y158.538 E73.11566
G1 X44.393 Y158.693 E73.12497
G1 X44.532 Y158.837 E73.13495
G1 X44.702 Y158.952 E73.14519
G1 X44.835 Y159.021 E73.15267
G1 X45.016 Y159.077 E73.16212
G1 X45.204 Y159.102 E73.17158
G1 X45.393 Y159.093 E73.18102
G1 X45.573 Y159.054 E73.19021
G1 X45.75 Y158.982 E73.19974
G1 X45.912 Y158.88 E73.20929
G1 X46.054 Y158.755 E73.21873
G1 X46.169 Y158.606 E73.22812
G1 X46.26 Y158.444 E73.23739
G1 X46.32 Y158.261 E73.247
G1 X46.348 Y158.079 E73.25619
G1 X46.347 Y157.895 E73.26537
G1 X46.314 Y157.713 E73.2746
G1 X46.248 Y157.532 E73.28421
G1 X46.154 Y157.373 E73.29342
G1 X46.039 Y157.23 E73.30258
G1 X45.899 Y157.111 E73.31175
G1 X45.748 Y157.017 E73.32062
G1 X45.573 Y156.946 E73.33004
G1 X45.393 Y156.907 E73.33923
G1 X45.204 Y156.898 E73.34867
G1 X45.015 Y156.923 E73.35818
G0 X44.994 Y156.826
G0 X43.387 Y157.904
G0 X43.291 Y158.47
G0 X42.996 Y158.834
G0 X10.575 Y178.511
G0 X10.597 Y178.608
G1 X10.255 Y178.718 E73.3761
G1 X9.935 Y178.882 E73.39404
G1 X9.647 Y179.101 E73.41209
G1 X9.4 Y179.365 E73.43013
G1 X9.264 Y179.571 E73.44245
G1 X9.202 Y179.665 E73.44806
G1 X9.057 Y179.995 E73.46605
G1 X8.971 Y180.344 E73.48398
G1 X8.942 Y180.704 E73.502
G1 X8.978 Y181.064 E73.52005
G1 X9.073 Y181.413 E73.53809
G1 X9.226 Y181.738 E73.55601
G1 X9.265 Y181.795 E73.55946
G1 X9.43 Y182.035 E73.57399
G1 X9.683 Y182.291 E73.59195
G1 X9.946 Y182.483 E73.60819
G1 X9.974 Y182.503 E73.60991
G1 X10.299 Y182.662 E73.62796
G1 X10.645 Y182.763 E73.64594
G1 X11.004 Y182.805 E73.66398
G1 X11.362 Y182.786 E73.68186
G1 X11.715 Y182.707 E73.69991
G1 X12.048 Y182.567 E73.71793
G1 X12.18 Y182.484 E73.72571
G1 X12.352 Y182.376 E73.73584
G1 X12.621 Y182.134 E73.75389
G1 X12.843 Y181.852 E73.7718
G1 X13.017 Y181.535 E73.78984
G1 X13.131 Y181.195 E73.80773
G1 X13.187 Y180.873 E73.82404
G1 X13.194 Y180.666 E73.83437
G1 X13.183 Y180.462 E73.84456
G1 X13.12 Y180.122 E73.86181
G1 X12.997 Y179.783 E73.87981
G1 X12.817 Y179.471 E73.89778
G1 X12.587 Y179.192 E73.91582
G1 X12.313 Y178.958 E73.93379
G1 X12.006 Y178.773 E73.95167
G1 X11.669 Y178.642 E73.96971
G1 X11.316 Y178.569 E73.9877
G1 X10.956 Y178.558 E74.00567
G1 X10.597 Y178.608 E74.02375
G0 X10.575 Y178.511
G0 X10.593 Y178.603
G0 X10.594 Y178.615
G0 X11.363 Y182.78
G0 X11.363 Y182.876
G1 X11.005 Y182.877
G1 X10.646 Y182.878
G1 X10.3 Y182.879 E74.02564
G1 X9.975 Y182.88 E74.03515
G1 X9.94 Y182.88 E74.03684
G1 X9.07 Y182.881 E74.08025
G1 X8.87 Y182.881 E74.09023
G1 X8.87 Y182.681 E74.09669
G1 X8.87 Y181.808 E74.14024
G1 X8.87 Y181.738 E74.14287
G1 X8.87 Y181.413 E74.14921
G1 X8.87 Y181.064
G1 X8.87 Y180.704
G1 X8.87 Y180.344
G1 X8.87 Y179.995
G1 X8.87 Y179.665 E74.15627
G1 X8.87 Y179.552 E74.16145
G1 X8.87 Y30.449 E81.60023
G1 X8.87 Y30.357 E81.60365
G1 X8.87 Y30.028 E81.60942
G1 X8.87 Y29.679
G1 X8.87 Y29.319
G1 X8.871 Y28.96
G1 X8.872 Y28.61 E81.60999
G1 X8.873 Y28.282 E81.61846
G1 X8.873 Y28.184 E81.623
G1 X8.874 Y27.124 E81.67588
G1 X9.93 Y27.124 E81.72857
G1 X9.954 Y27.124 E81.72946
G1 X10.277 Y27.124 E81.73712
G1 X10.62 Y27.124 E81.73908
G1 X10.979 Y27.124
G1 X11.339 Y27.124
G1 X11.693 Y27.124
G1 X12.026 Y27.124 E81.74512
G1 X12.208 Y27.124 E81.75308
G1 X201.126 Y27.119 E91.17824
G1 X201.131 Y182.676 E98.93901
G1 X201.131 Y182.876 E98.94898
G1 X200.931 Y182.876 E98.95544
G1 X12.205 Y182.876 E108.37102
G1 X12.048 Y182.876 E108.37668
G1 X11.715 Y182.876 E108.38071
G1 X11.363 Y182.876
G0 X11.363 Y182.78
G0 X10.636 Y178.606
G0 X10.635 Y178.594
G0 X10.619 Y178.504
G0 X10.687 Y178.999
;TYPE:WALL-OUTER
G1 X10.409 Y179.089 E108.39529
G1 X10.149 Y179.222 E108.40986
G1 X9.916 Y179.399 E108.42445
G1 X9.715 Y179.613 E108.4391
G1 X9.555 Y179.857 E108.45366
G1 X9.437 Y180.125 E108.46827
G1 X9.367 Y180.408 E108.48281
G1 X9.344 Y180.7 E108.49742
G1 X9.373 Y180.991 E108.51201
G1 X9.45 Y181.274 E108.52665
G1 X9.574 Y181.538 E108.5412
G1 X9.74 Y181.779 E108.5558
G1 X9.945 Y181.987 E108.57037
G1 X10.181 Y182.159 E108.58494
G1 X10.444 Y182.288 E108.59955
G1 X10.725 Y182.37 E108.61416
G1 X11.016 Y182.404 E108.62877
G1 X11.307 Y182.388 E108.64331
G1 X11.593 Y182.324 E108.65793
G1 X11.863 Y182.211 E108.67254
G1 X12.11 Y182.056 E108.68708
G1 X12.328 Y181.86 E108.70171
G1 X12.508 Y181.631 E108.71624
G1 X12.649 Y181.374 E108.73087
G1 X12.742 Y181.097 E108.74544
G1 X12.788 Y180.831 E108.75891
G1 X12.794 Y180.67 E108.76695
G1 X12.785 Y180.51 E108.77495
G1 X12.733 Y180.227 E108.7893
G1 X12.633 Y179.953 E108.80385
G1 X12.487 Y179.7 E108.81843
G1 X12.3 Y179.473 E108.8331
G1 X12.078 Y179.283 E108.84768
G1 X11.829 Y179.133 E108.86218
G1 X11.556 Y179.027 E108.87679
G1 X11.269 Y178.968 E108.89141
G1 X10.977 Y178.959 E108.90598
G1 X10.687 Y178.999 E108.92059
G0 X10.497 Y179.06
G0 X10.346 Y178.584
G0 X41.957 Y156.837
G0 X42.102 Y157.315
G1 X41.989 Y157.35 E108.92649
G1 X41.882 Y157.403 E108.93245
G1 X41.787 Y157.475 E108.93839
G1 X41.705 Y157.56 E108.94429
G1 X41.639 Y157.658 E108.95018
G1 X41.59 Y157.765 E108.95605
G1 X41.559 Y157.881 E108.96204
G1 X41.549 Y158 E108.968
G1 X41.559 Y158.118 E108.97391
G1 X41.59 Y158.234 E108.9799
G1 X41.639 Y158.342 E108.98582
G1 X41.705 Y158.44 E108.99171
G1 X41.788 Y158.526 E108.99767
G1 X41.882 Y158.596 E109.00352
G1 X41.988 Y158.65 E109.00946
G1 X42.102 Y158.685 E109.01541
G1 X42.221 Y158.701 E109.0214
G1 X42.34 Y158.695 E109.02734
G1 X42.455 Y158.67 E109.03321
G1 X42.565 Y158.625 E109.03914
G1 X42.666 Y158.564 E109.04503
G1 X42.756 Y158.485 E109.051
G1 X42.83 Y158.393 E109.05689
G1 X42.889 Y158.289 E109.06286
G1 X42.928 Y158.176 E109.06882
G1 X42.948 Y158.059 E109.07474
G1 X42.948 Y157.941 E109.08063
G1 X42.928 Y157.824 E109.08655
G1 X42.889 Y157.711 E109.09252
G1 X42.83 Y157.607 E109.09848
G1 X42.756 Y157.515 E109.10437
G1 X42.666 Y157.436 E109.11035
G1 X42.565 Y157.375 E109.11623
G1 X42.455 Y157.33 E109.12216
G1 X42.34 Y157.305 E109.12803
G1 X42.221 Y157.299 E109.13398
G1 X42.102 Y157.315 E109.13997
G0 X41.989 Y157.35
G0 X41.916 Y157.386
G0 X41.694 Y156.938
G0 X42.092 Y156.899
G0 X45.036 Y156.819
G0 X45.102 Y157.315
G1 X44.99 Y157.35 E109.14582
G1 X44.886 Y157.401 E109.1516
G1 X44.787 Y157.474 E109.15774
G1 X44.705 Y157.56 E109.16367
G1 X44.639 Y157.658 E109.16956
G1 X44.59 Y157.765 E109.17543
G1 X44.559 Y157.881 E109.18142
G1 X44.549 Y158 E109.18738
G1 X44.559 Y158.118 E109.19329
G1 X44.59 Y158.234 E109.19928
G1 X44.639 Y158.342 E109.2052
G1 X44.705 Y158.44 E109.21109
G1 X44.791 Y158.529 E109.21727
G1 X44.908 Y158.608 E109.22431
G1 X44.988 Y158.65 E109.22882
G1 X45.102 Y158.685 E109.23477
G1 X45.221 Y158.701 E109.24076
G1 X45.34 Y158.695 E109.2467
G1 X45.455 Y158.67 E109.25257
G1 X45.567 Y158.625 E109.25859
G1 X45.671 Y158.559 E109.26474
G1 X45.761 Y158.48 E109.27071
G1 X45.834 Y158.385 E109.27669
G1 X45.892 Y158.282 E109.28259
G1 X45.93 Y158.167 E109.28863
G1 X45.948 Y158.05 E109.29454
G1 X45.947 Y157.933 E109.30037
G1 X45.926 Y157.817 E109.30626
G1 X45.885 Y157.703 E109.3123
G1 X45.825 Y157.602 E109.31816
G1 X45.751 Y157.51 E109.32405
G1 X45.663 Y157.435 E109.32982
G1 X45.566 Y157.375 E109.33551
G1 X45.455 Y157.33 E109.34149
G1 X45.34 Y157.305 E109.34736
G1 X45.221 Y157.299 E109.3533
G1 X45.102 Y157.315 E109.35929
G0 X44.99 Y157.35
G0 X44.915 Y157.386
G0 X44.695 Y156.939
G0 X42.318 Y153.801
G0 X42.131 Y153.277
G0 X42.131 Y152.723
G0 X42.318 Y152.199
G0 X42.629 Y151.812
G0 X43.351 Y151.349
G0 X43.497 Y151.826
G1 X43.302 Y151.886 E109.36947
G1 X43.121 Y151.977 E109.37958
G1 X42.956 Y152.098 E109.38979
G1 X42.816 Y152.246 E109.39995
G1 X42.702 Y152.414 E109.41008
G1 X42.618 Y152.6 E109.42026
G1 X42.566 Y152.797 E109.43043
G1 X42.549 Y153 E109.44059
G1 X42.566 Y153.203 E109.45075
G1 X42.618 Y153.4 E109.46092
G1 X42.702 Y153.586 E109.4711
G1 X42.816 Y153.754 E109.48123
G1 X42.956 Y153.902 E109.49139
G1 X43.121 Y154.023 E109.5016
G1 X43.302 Y154.114 E109.51171
G1 X43.497 Y154.174 E109.52189
G1 X43.7 Y154.2 E109.5321
G1 X43.903 Y154.191 E109.54223
G1 X44.102 Y154.148 E109.55239
